!!!OTL: akapera
**kern	**kern	**text	**kern	**text	**kern	**text	**kern	**text	**kern	**text	**mxhm	**kern	**text	**mxhm
*part7	*part6	*part6	*part5	*part5	*part4	*part4	*part3	*part3	*part2	*part2	*part2	*part1	*part1	*part1
*staff7	*staff6	*staff6	*staff5	*staff5	*staff4	*staff4	*staff3	*staff3	*staff2	*staff2	*	*staff1	*staff1	*
*I"Voice Percussion	*I"Bass	*	*I"Tenor	*	*I"Alto	*	*I"MezzoSoprano	*	*I"Soprano	*	*	*I"Melody	*	*
*	*	*	*	*	*	*	*	*	*	*	*	*I'Melody	*	*
*clefX	*clefF4	*	*clefGv2	*	*clefG2	*	*clefG2	*	*clefG2	*	*	*clefG2	*	*
*k[]	*k[b-e-a-d-g-c-]	*	*k[b-e-a-d-g-c-]	*	*k[b-e-a-d-g-c-]	*	*k[b-e-a-d-g-c-]	*	*k[b-e-a-d-g-c-]	*	*	*k[b-e-a-d-g-c-]	*	*
*M4/4	*M4/4	*	*M4/4	*	*M4/4	*	*M4/4	*	*M4/4	*	*	*M4/4	*	*
=1	=1	=1	=1	=1	=1	=1	=1	=1	=1	=1	=1	=1	=1	=1
1r	1r	.	2r	.	1r	.	1r	.	1r	.	.	2r	.	.
.	.	.	4r	.	.	.	.	.	.	.	.	4r	.	.
.	.	.	4b-	ah	.	.	.	.	.	.	.	4b-	ah	.
=2	=2	=2	=2	=2	=2	=2	=2	=2	=2	=2	=2	=2	=2	=2
1r	2r	.	8g-L	ah	1r	.	1r	.	1r	.	.	8g-L	ah	.
.	.	.	8g-	ど	.	.	.	.	.	.	.	8g-	ど	.
.	.	.	8g-	れ	.	.	.	.	.	.	.	8g-	れ	.
.	.	.	8e-J	だ	.	.	.	.	.	.	.	8e-J	だ	.
.	2r	.	8g-L	け	.	.	.	.	.	.	.	8g-L	け	.
.	.	.	8e-	か	.	.	.	.	.	.	.	8e-	か	.
.	.	.	8g-	こ	.	.	.	.	.	.	.	8g-	こ	.
.	.	.	8a-J	が	.	.	.	.	.	.	.	8a-J	が	.
=3	=3	=3	=3	=3	=3	=3	=3	=3	=3	=3	=3	=3	=3	=3
1r	2r	.	4b-	つら	1r	.	1r	.	1r	.	.	4b-	つら	.
.	.	.	4g-	くて	.	.	.	.	.	.	.	4g-	くて	.
.	2r	.	4b-	くら	.	.	.	.	.	.	.	4b-	くら	.
.	.	.	4g-	くて	.	.	.	.	.	.	.	4g-	くて	.
=4	=4	=4	=4	=4	=4	=4	=4	=4	=4	=4	=4	=4	=4	=4
1r	2r	.	16g-LL	も	1r	.	1r	.	1r	.	.	16g-LL	も	.
.	.	.	16e-	き	.	.	.	.	.	.	.	16e-	き	.
.	.	.	16g-	の	.	.	.	.	.	.	.	16g-	の	.
.	.	.	16e-JJ	う	.	.	.	.	.	.	.	16e-JJ	う	.
.	.	.	16g-LL	よ	.	.	.	.	.	.	.	16g-LL	よ	.
.	.	.	16e-	り	.	.	.	.	.	.	.	16e-	り	.
.	.	.	16g-	も	.	.	.	.	.	.	.	16g-	も	.
.	.	.	16e-JJ	ふ	.	.	.	.	.	.	.	16e-JJ	ふ	.
.	2r	.	16g-LL	あ	.	.	.	.	.	.	.	16g-LL	あ	.
.	.	.	16e-	ん	.	.	.	.	.	.	.	16e-	ん	.
.	.	.	16g-	な	.	.	.	.	.	.	.	16g-	な	.
.	.	.	16e-JJ	あ	.	.	.	.	.	.	.	16e-JJ	あ	.
.	.	.	16g-LL	し	.	.	.	.	.	.	.	16g-LL	し	.
.	.	.	16g-J	た	.	.	.	.	.	.	.	16g-J	た	.
.	.	.	8a-J	が	.	.	.	.	.	.	.	8a-J	が	.
=5	=5	=5	=5	=5	=5	=5	=5	=5	=5	=5	=5	=5	=5	=5
1r	2r	.	8.b-L	ふ	1r	.	1r	.	1r	.	.	8.b-L	ふ	.
.	.	.	[16bnJk	え	.	.	.	.	.	.	.	[16bnJk	え	.
.	.	.	8bL]	ー	.	.	.	.	.	.	.	8bL]	ー	.
.	.	.	16a-L	て	.	.	.	.	.	.	.	16a-L	て	.
.	.	.	16g-JJ	ー	.	.	.	.	.	.	.	16g-JJ	ー	.
.	2r	.	8a-L	も	.	.	.	.	.	.	.	8a-L	も	.
.	.	.	8g-J	ー	.	.	.	.	.	.	.	8g-J	ー	.
.	.	.	8r	.	.	.	.	.	.	.	.	8r	.	.
.	.	.	8d-	な	.	.	.	.	.	.	.	8d-	な	.
=6	=6	=6	=6	=6	=6	=6	=6	=6	=6	=6	=6	=6	=6	=6
1r	2r	.	8g-L	や	2r	.	2r	.	1r	.	.	8g-L	や	.
.	.	.	8e-	ん	.	.	.	.	.	.	.	8e-	ん	.
.	.	.	8g-	だ	.	.	.	.	.	.	.	8g-	だ	.
.	.	.	8e-J	り	.	.	.	.	.	.	.	8e-J	り	.
.	2r	.	8a-L	な	2r	.	2r	.	.	.	.	8a-L	な	.
.	.	.	8g-	い	.	.	.	.	.	.	.	8g-	い	.
.	.	.	8a-	た	.	.	.	.	.	.	.	8a-	た	.
.	.	.	8g-J	り	.	.	.	.	.	.	.	8g-J	り	.
=7	=7	=7	=7	=7	=7	=7	=7	=7	=7	=7	=7	=7	=7	=7
4Rff/	4G-	.	8b-L	す	4g-	.	4b-	.	1dd-	.	D major	8b-L	す	.
.	.	.	8b-J	る	.	.	.	.	.	.	.	8b-J	る	.
4Rff/	4F	.	4bn	きょう	4f	.	4a-	.	.	.	A major/C#	4bn	きょう	.
4Rff/	4E-	.	4b-X	も	4e-	.	4g-	.	.	.	B minor	4b-X	も	.
4Rff/	4D-	.	8e-L	す	4d-	.	4f	.	.	.	A major	8e-L	す	.
.	.	.	8b-J	す	.	.	.	.	.	.	.	8b-J	す	.
=8	=8	=8	=8	=8	=8	=8	=8	=8	=8	=8	=8	=8	=8	=8
1Rff	1BBn	.	4a-	め	1e-	.	1g-	.	1bn	.	G major	4a-	め	.
.	.	.	8r	.	.	.	.	.	.	.	.	8r	.	.
.	.	.	8e-	き	.	.	.	.	.	.	.	8e-	き	.
.	.	.	8e-L	み	.	.	.	.	.	.	.	8e-L	み	.
.	.	.	8e-	ら	.	.	.	.	.	.	.	8e-	ら	.
.	.	.	8e-	し	.	.	.	.	.	.	.	8e-	し	.
.	.	.	8b-J	く	.	.	.	.	.	.	.	8b-J	く	.
=9	=9	=9	=9	=9	=9	=9	=9	=9	=9	=9	=9	=9	=9	=9
4Rff/	2r	.	8b-L	こ	8b-L	こ	8fL	こ	8dd-L	こ	.	8b-L	こ	.
.	.	.	8b-	こ	8b-	こ	8f	こ	8dd-	こ	.	8b-	こ	.
4r	.	.	8b-	ろ	8b-	ろ	8f	ろ	8dd-	ろ	.	8b-	ろ	.
.	.	.	8b-J	お	8b-J	お	8fJ	お	8dd-J	お	.	8b-J	お	.
2r	2r	.	8bnL	ど	8bnL	ど	8a-L	ど	8ee-L	ど	.	8bnL	ど	.
.	.	.	8b-X	る	8b-X	る	8g-	る	8dd-	る	.	8b-X	る	.
.	.	.	8a-	ほ	8a-	ほ	8f	ほ	8bn	ほ	.	8a-	ほ	.
.	.	.	8g-J	う	8g-J	う	8d-J	う	8b-XJ	う	.	8g-J	う	.
=10	=10	=10	=10	=10	=10	=10	=10	=10	=10	=10	=10	=10	=10	=10
*M2/4	*M2/4	*	*M2/4	*	*M2/4	*	*M2/4	*	*M2/4	*	*	*M2/4	*	*
4r	2r	.	2r	.	2r	.	2r	.	2r	.	.	2r	.	.
4Rff/	.	.	.	.	.	.	.	.	.	.	.	.	.	.
=11	=11	=11	=11	=11	=11	=11	=11	=11	=11	=11	=11	=11	=11	=11
*M4/4	*M4/4	*	*M4/4	*	*M4/4	*	*M4/4	*	*M4/4	*	*	*M4/4	*	*
*^	*	*	*	*	*	*	*	*	*	*	*	*	*	*
8r	8Ra\	8.BBnL	.	1r	.	2e-	oh	2g-	oh	2bn	oh	G major	1r	.	.
16Rff/	16r	.	.	.	.	.	.	.	.	.	.	.	.	.	.
16r	[16Ra\	[16BBJk	.	.	.	.	.	.	.	.	.	.	.	.	.
16r	16Ra\LL]	8BBL]	.	.	.	.	.	.	.	.	.	.	.	.	.
16r	16Ra\JJ	.	.	.	.	.	.	.	.	.	.	.	.	.	.
8Rff/	8r	8BBJ	.	.	.	.	.	.	.	.	.	.	.	.	.
8r	8Ra\	8.D-L	.	.	.	2f	.	2a-	.	2dd-	.	A major	.	.	.
16Rff/	16r	.	.	.	.	.	.	.	.	.	.	.	.	.	.
16r	[16Ra\	[16D-Jk	.	.	.	.	.	.	.	.	.	.	.	.	.
16r	16Ra\LL]	8D-L]	.	.	.	.	.	.	.	.	.	.	.	.	.
16r	16Ra\JJ	.	.	.	.	.	.	.	.	.	.	.	.	.	.
8Rff/	8r	8D-J	.	.	.	.	.	.	.	.	.	.	.	.	.
*v	*v	*	*	*	*	*	*	*	*	*	*	*	*	*	*
=12	=12	=12	=12	=12	=12	=12	=12	=12	=12	=12	=12	=12	=12	=12
1ryy	8.G-L	.	1r	.	2d-	.	2g-	.	2b-	.	D major	1r	.	.
.	[16G-Jk	.	.	.	.	.	.	.	.	.	.	.	.	.
.	8G-L]	.	.	.	.	.	.	.	.	.	.	.	.	.
.	8G-J	.	.	.	.	.	.	.	.	.	.	.	.	.
.	8.E-L	.	.	.	4g-	woh	4b-	woh	4ee-	woh	B minor	.	.	.
.	[16E-Jk	.	.	.	.	.	.	.	.	.	.	.	.	.
.	8E-L]	.	.	.	4f	.	4a-	.	4dd-	.	A major	.	.	.
.	8D-J	.	.	.	.	.	.	.	.	.	.	.	.	.
=13	=13	=13	=13	=13	=13	=13	=13	=13	=13	=13	=13	=13	=13	=13
1ryy	8.BBnL	.	1r	.	[2e-	oh	[2g-	oh	[2bn	oh	G major	1r	.	.
.	[16BBJk	.	.	.	.	.	.	.	.	.	.	.	.	.
.	8BBL]	.	.	.	.	.	.	.	.	.	.	.	.	.
.	8BBJ	.	.	.	.	.	.	.	.	.	.	.	.	.
.	8.D-L	.	.	.	4e-]	.	4g-]	.	4b]	.	A major	.	.	.
.	[16D-Jk	.	.	.	.	.	.	.	.	.	.	.	.	.
.	8D-L]	.	.	.	8fL	.	8fL	.	8bL	.	.	.	.	.
.	8D-J	.	.	.	8g-J	.	8g-J	.	8b-XJ	.	.	.	.	.
=14	=14	=14	=14	=14	=14	=14	=14	=14	=14	=14	=14	=14	=14	=14
1ryy	8.G-L	.	1r	.	1r	.	1r	.	2r	.	B minor	1r	.	.
.	[16G-Jk	.	.	.	.	.	.	.	.	.	.	.	.	.
.	8G-L]	.	.	.	.	.	.	.	.	.	.	.	.	.
.	8G-J	.	.	.	.	.	.	.	.	.	.	.	.	.
.	8.G-L	.	.	.	.	.	.	.	2r	.	.	.	.	.
.	[16G-Jk	.	.	.	.	.	.	.	.	.	.	.	.	.
.	8G-L]	.	.	.	.	.	.	.	.	.	.	.	.	.
.	8G-J	.	.	.	.	.	.	.	.	.	.	.	.	.
=15	=15	=15	=15	=15	=15	=15	=15	=15	=15	=15	=15	=15	=15	=15
1ryy	8.BBnL	.	2e-	ah	1r	.	2g-	ah	2bn	ah	G major	1r	.	.
.	[16BBJk	.	.	.	.	.	.	.	.	.	.	.	.	.
.	8BBL]	.	.	.	.	.	.	.	.	.	.	.	.	.
.	8BBJ	.	.	.	.	.	.	.	.	.	.	.	.	.
.	8.D-L	.	2f	.	.	.	2a-	.	2dd-	.	A major	.	.	.
.	[16D-Jk	.	.	.	.	.	.	.	.	.	.	.	.	.
.	8D-L]	.	.	.	.	.	.	.	.	.	.	.	.	.
.	8D-J	.	.	.	.	.	.	.	.	.	.	.	.	.
=16	=16	=16	=16	=16	=16	=16	=16	=16	=16	=16	=16	=16	=16	=16
*^	*	*	*	*	*	*	*	*	*	*	*	*	*	*
4Rff/	8r	8.G-L	.	8.g-L	.	1r	.	8.b-L	.	8.ee-L	hoo	D major	1r	.	.
.	16Ra\LL	.	.	.	.	.	.	.	.	.	.	.	.	.	.
.	16Ra\JJ	16FJk	.	16fJk	.	.	.	16a-Jk	.	16dd-Jk	.	.	.	.	.
8r	4r	8r	.	8r	.	.	.	8r	.	8r	.	.	.	.	.
8Rff/	.	[8E-	.	[8e-	.	.	.	[8g-	.	[8b-	oo	.	.	.	.
8r	8r	4E-]	.	4e-]	woh	.	.	4g-]	.	4b-]	.	B minor	.	.	.
16Rff/	16r	.	.	.	.	.	.	.	.	.	.	.	.	.	.
16r	[16Ra\	.	.	.	.	.	.	.	.	.	.	.	.	.	.
16r	16Ra\LL]	4D-	.	4d-	.	.	.	4f	.	4a-	.	A major	.	.	.
16r	16Ra\JJ	.	.	.	.	.	.	.	.	.	.	.	.	.	.
8Rff/	8r	.	.	.	.	.	.	.	.	.	.	.	.	.	.
=17	=17	=17	=17	=17	=17	=17	=17	=17	=17	=17	=17	=17	=17	=17	=17
8r	8Ra\	8.BBnL	.	2e-	oh	1r	.	2g-	oh	2bn	oh	G major	1r	.	.
16Rff/	16r	.	.	.	.	.	.	.	.	.	.	.	.	.	.
16r	[16Ra\	[16BBJk	.	.	.	.	.	.	.	.	.	.	.	.	.
16r	16Ra\LL]	8BBL]	.	.	.	.	.	.	.	.	.	.	.	.	.
16r	16Ra\JJ	.	.	.	.	.	.	.	.	.	.	.	.	.	.
8Rff/	8r	8BBJ	.	.	.	.	.	.	.	.	.	.	.	.	.
8r	8Ra\	8.D-L	.	2f	.	.	.	2a-	.	2dd-	.	A major	.	.	.
16Rff/	16r	.	.	.	.	.	.	.	.	.	.	.	.	.	.
16r	[16Ra\	[16D-Jk	.	.	.	.	.	.	.	.	.	.	.	.	.
16r	16Ra\LL]	8D-L]	.	.	.	.	.	.	.	.	.	.	.	.	.
16r	16Ra\JJ	.	.	.	.	.	.	.	.	.	.	.	.	.	.
8Rff/	8r	8D-J	.	.	.	.	.	.	.	.	.	.	.	.	.
=18	=18	=18	=18	=18	=18	=18	=18	=18	=18	=18	=18	=18	=18	=18	=18
8r	16Ra\LL	8G-L	woh	8g-L	woh	2r	.	8g-L	woh	8g-L	woh	.	2r	.	.
.	16Ra\JJ	.	.	.	.	.	.	.	.	.	.	.	.	.	.
8Rff/L	8r	8D-	.	8d-	.	.	.	8d-	.	8d-	.	.	.	.	.
8Rff/	4r	8A-	oh	8e-	oh	.	.	8a-	oh	8bn	oh	.	.	.	.
8Rff/J	.	8G-J	.	8d-J	.	.	.	8g-J	.	8b-XJ	.	.	.	.	.
8Rff/	4r	2r	.	8r	.	8r	.	2r	.	2r	.	.	8r	.	.
8r	.	.	.	8r	.	8d-L	わ	.	.	.	.	.	8d-L	わ	.
8r	16r	.	.	4r	.	8d-	か	.	.	.	.	.	8d-	か	.
.	16Ra\LL	.	.	.	.	.	.	.	.	.	.	.	.	.	.
8r	16Ra\JJ	.	.	.	.	8d-J	れ	.	.	.	.	.	8d-J	れ	.
.	16r	.	.	.	.	.	.	.	.	.	.	.	.	.	.
*v	*v	*	*	*	*	*	*	*	*	*	*	*	*	*	*
=19	=19	=19	=19	=19	=19	=19	=19	=19	=19	=19	=19	=19	=19	=19
4Rff/	1r	.	2g-	.	8g-L	み	2b-	.	2dd-	.	D major	8g-L	み	.
.	.	.	.	.	8a-	ち	.	.	.	.	.	8a-	ち	.
8r	.	.	.	.	8g-	に	.	.	.	.	.	8g-	に	.
8Ree/	.	.	.	.	8a-J	た	.	.	.	.	.	8a-J	た	.
8r	.	.	2f	.	8g-L	ー	2b-	.	2dd-	.	D major-seventh/C#	8g-L	ー	.
8Ree/	.	.	.	.	8g-J	つ	.	.	.	.	.	8g-J	つ	.
8r	.	.	.	.	8r	.	.	.	.	.	.	8r	.	.
8Ree/	.	.	.	.	8d-	と	.	.	.	.	.	8d-	と	.
=20	=20	=20	=20	=20	=20	=20	=20	=20	=20	=20	=20	=20	=20	=20
8r	1r	.	2e-	.	8g-L	も	2g-	.	2bn	.	G- minor-seventh	8g-L	も	.
8Ree/	.	.	.	.	8a-	に	.	.	.	.	.	8a-	に	.
8r	.	.	.	.	8g-	う	.	.	.	.	.	8g-	う	.
8Ree/	.	.	.	.	8bnJ	た	.	.	.	.	.	8bnJ	た	.
8r	.	.	2d-	.	8b-XL	ー	2f	.	2b-X	.	F# minor/A	8b-XL	ー	.
8Ree/	.	.	.	.	8b-	う	.	.	.	.	.	8b-	う	.
8r	.	.	.	.	8d-	か	.	.	.	.	.	8d-	か	.
8Ree/	.	.	.	.	8d-J	さ	.	.	.	.	.	8d-J	さ	.
=21	=21	=21	=21	=21	=21	=21	=21	=21	=21	=21	=21	=21	=21	=21
1ryy	1r	.	2Bn	.	8g-L	ね	2e-	.	2bn	.	G major	8g-L	ね	.
.	.	.	.	.	8a-	た	.	.	.	.	.	8a-	た	.
.	.	.	.	.	8g-	ひ	.	.	.	.	.	8g-	ひ	.
.	.	.	.	.	8a-J	び	.	.	.	.	.	8a-J	び	.
.	.	.	2B-X	.	8g-L	ー	2g-	.	2dd-	.	D major	8g-L	ー	.
.	.	.	.	.	8g-	は	.	.	.	.	.	8g-	は	.
.	.	.	.	.	8e-	か	.	.	.	.	.	8e-	か	.
.	.	.	.	.	8g-J	わ	.	.	.	.	.	8g-J	わ	.
=22	=22	=22	=22	=22	=22	=22	=22	=22	=22	=22	=22	=22	=22	=22
*^	*	*	*	*	*	*	*	*	*	*	*	*	*	*
8r	2r	1r	.	2Bn	.	8d-L	ー	2en	.	2a-	.	C major	8d-L	ー	.
8Ree/	.	.	.	.	.	8d-	ら	.	.	.	.	.	8d-	ら	.
8r	.	.	.	.	.	8e-	ず	.	.	.	.	.	8e-	ず	.
8Ree/	.	.	.	.	.	8dd-J	の	.	.	.	.	.	8dd-J	の	.
4Rff/	4r	.	.	4d-	.	8b-L	こ	2f	.	2a-	.	A major	8b-L	こ	.
.	.	.	.	.	.	8a-	ー	.	.	.	.	.	8a-	ー	.
16r	16r	.	.	8r	.	8a-	る	.	.	.	.	.	8a-	る	.
16r	16Ra\	.	.	.	.	.	.	.	.	.	.	.	.	.	.
8Rff/	8r	.	.	8e-	ち	8a-J	ち	.	.	.	.	.	8a-J	ち	.
=23	=23	=23	=23	=23	=23	=23	=23	=23	=23	=23	=23	=23	=23	=23	=23
8r	8Ra\	8.G-L	.	8e-L	ぎ	8a-L	ぎ	2g-	.	2b-	hu	D major	8a-L	ぎ	.
16Rff/	16r	.	.	8d-	れ	8g-	れ	.	.	.	.	.	8g-	れ	.
16r	[16Ra\	[16G-Jk	.	.	.	.	.	.	.	.	.	.	.	.	.
16r	16Ra\LL]	8G-L]	.	8B-	そ	8e-	そ	.	.	.	.	.	8e-	そ	.
16r	16Ra\JJ	.	.	.	.	.	.	.	.	.	.	.	.	.	.
8Rff/	8r	8G-J	.	8d-J	う	8g-J	う	.	.	.	.	.	8g-J	う	.
8r	8Ra\	8.A-L	.	8e-L	な	8a-L	な	2a-	.	2bn	uh	E minor-seventh	8a-L	な	.
16Rff/	16r	.	.	8d-	い	8g-	い	.	.	.	.	.	8g-	い	.
16r	[16Ra\	[16A-Jk	.	.	.	.	.	.	.	.	.	.	.	.	.
16r	16Ra\LL]	8A-L]	.	8B-	ま	8e-	ま	.	.	.	.	.	8e-	ま	.
16r	16Ra\JJ	.	.	.	.	.	.	.	.	.	.	.	.	.	.
8Rff/	8r	8A-J	.	8d-J	ぬ	8g-J	ぬ	.	.	.	.	.	8g-J	ぬ	.
*v	*v	*	*	*	*	*	*	*	*	*	*	*	*	*	*
=24	=24	=24	=24	=24	=24	=24	=24	=24	=24	=24	=24	=24	=24	=24
1ryy	8.B-L	.	8d-L	い	8g-L	い	2b-	.	2dd-	uh	G- minor-seventh	8g-L	い	.
.	.	.	8B-	あ	8d-	あ	.	.	.	.	.	8d-	あ	.
.	[16B-Jk	.	.	.	.	.	.	.	.	.	.	.	.	.
.	8B-L]	.	8f	わ	8bn	わ	.	.	.	.	.	8bn	わ	.
.	8B-J	.	8e-J	ー	8b-XJ	ー	.	.	.	.	.	8b-XJ	ー	.
.	8.E-L	.	8e-L	せ	8b-L	せ	2g-	.	2b-	uh	B minor	8b-L	せ	.
.	.	.	8e-	お	8a-	お	.	.	.	.	.	8a-	お	.
.	[16E-Jk	.	.	.	.	.	.	.	.	.	.	.	.	.
.	8E-L]	.	8e-	も	8a-	も	.	.	.	.	.	8a-	も	.
.	8D-J	.	8d-J	い	8g-J	い	.	.	.	.	.	8g-J	い	.
=25	=25	=25	=25	=25	=25	=25	=25	=25	=25	=25	=25	=25	=25	=25
1ryy	8.BBnL	.	8BnL	だ	8g-L	だ	2g-	.	2bn	uh	G major	8g-L	だ	.
.	.	.	8d-	し	8a-	し	.	.	.	.	.	8a-	し	.
.	[16BBJk	.	.	.	.	.	.	.	.	.	.	.	.	.
.	8BBL]	.	8B	た	8g-	た	.	.	.	.	.	8g-	た	.
.	8BBJ	.	8g-J	あ	8bnJ	あ	.	.	.	.	.	8bnJ	あ	.
.	8.D-L	.	8fL	の	8b-XL	の	2a-	.	2dd-	uh	A major	8b-XL	の	.
.	.	.	8d-	こ	8g-	こ	.	.	.	.	.	8g-	こ	.
.	[16D-Jk	.	.	.	.	.	.	.	.	.	.	.	.	.
.	8D-L]	.	8e-	ろ	8a-	ろ	.	.	.	.	.	8a-	ろ	.
.	8D-J	.	8d-J	ー	8g-J	ー	.	.	.	.	.	8g-J	ー	.
=26	=26	=26	=26	=26	=26	=26	=26	=26	=26	=26	=26	=26	=26	=26
*^	*	*	*	*	*	*	*	*	*	*	*	*	*	*
8r	8Ra\	8.G-L	.	2r	.	2r	.	2r	.	2r	.	D major	1r	.	.
16Rff/	16r	.	.	.	.	.	.	.	.	.	.	.	.	.	.
16r	[16Ra\	[16G-Jk	.	.	.	.	.	.	.	.	.	.	.	.	.
16r	16Ra\]	8G-L]	.	.	.	.	.	.	.	.	.	.	.	.	.
16Rff/	16r	.	.	.	.	.	.	.	.	.	.	.	.	.	.
8r	8Ra\	[8G-J	.	.	.	.	.	.	.	.	.	.	.	.	.
8Rff/	16r	8G-L]	.	2r	.	2r	.	4r	.	4r	.	.	.	.	.
.	16r	.	.	.	.	.	.	.	.	.	.	.	.	.	.
8r	16Ra\LL	8D-	.	.	.	.	.	.	.	.	.	.	.	.	.
.	16Ra\JJ	.	.	.	.	.	.	.	.	.	.	.	.	.	.
4r	16Ra\LL	8BBn	.	.	.	.	.	8r	.	8r	.	.	.	.	.
.	16Ra\	.	.	.	.	.	.	.	.	.	.	.	.	.	.
.	16Ra\	8BB-XJ	.	.	.	.	.	8d-	あ	8f	あ	.	.	.	.
.	16Ra\JJ	.	.	.	.	.	.	.	.	.	.	.	.	.	.
=27	=27	=27	=27	=27	=27	=27	=27	=27	=27	=27	=27	=27	=27	=27	=27
8r	8Ra\	8.G-L	.	2d-	.	2b-	oo	8g-L	た	8b-L	た	D major	8g-L	た	.
16Rff/	16r	.	.	.	.	.	.	8a-	り	8bn	り	.	8a-	り	.
16r	[16Ra\	[16G-Jk	.	.	.	.	.	.	.	.	.	.	.	.	.
16r	16Ra\LL]	8G-L]	.	.	.	.	.	8g-	ま	8b-X	ま	.	8g-	ま	.
16r	16Ra\JJ	.	.	.	.	.	.	.	.	.	.	.	.	.	.
8Rff/	8r	8G-J	.	.	.	.	.	8a-J	え	8bnJ	え	.	8a-J	え	.
8r	8Ra\	8.A-L	.	2e-	.	2bn	.	8g-L	ー	8b-XL	ー	E minor-seventh	8g-L	ー	.
16Rff/	16r	.	.	.	.	.	.	8g-	の	8b-	の	.	8g-	の	.
16r	[16Ra\	[16A-Jk	.	.	.	.	.	.	.	.	.	.	.	.	.
16r	16Ra\LL]	8A-L]	.	.	.	.	.	8d-	い	8f	い	.	8d-	い	.
16r	16Ra\JJ	.	.	.	.	.	.	.	.	.	.	.	.	.	.
8Rff/	8r	8A-J	.	.	.	.	.	8d-J	つ	8fJ	つ	.	8d-J	つ	.
*v	*v	*	*	*	*	*	*	*	*	*	*	*	*	*	*
=28	=28	=28	=28	=28	=28	=28	=28	=28	=28	=28	=28	=28	=28	=28
1ryy	8.B-L	.	2f	.	2dd-	.	8g-L	も	8b-L	も	G- minor-seventh	8g-L	も	.
.	.	.	.	.	.	.	8a-	の	8bn	の	.	8a-	の	.
.	[16B-Jk	.	.	.	.	.	.	.	.	.	.	.	.	.
.	8B-L]	.	.	.	.	.	8g-	え	8b-X	え	.	8g-	え	.
.	8B-J	.	.	.	.	.	8bnJ	が	8ee-J	が	.	8bnJ	が	.
.	8.E-L	.	2g-	.	2b-	.	8b-XL	ー	8dd-L	ー	B minor	8b-XL	ー	.
.	.	.	.	.	.	.	8b-J	お	8dd-J	お	.	8b-J	お	.
.	[16E-Jk	.	.	.	.	.	.	.	.	.	.	.	.	.
.	8E-L]	.	.	.	.	.	8r	.	8r	.	.	8r	.	.
.	8D-J	.	.	.	.	.	8d-	へ	8f	へ	.	8d-	へ	.
=29	=29	=29	=29	=29	=29	=29	=29	=29	=29	=29	=29	=29	=29	=29
1ryy	8.BBnL	.	2e-	.	2g-	oo	8g-L	い	8b-L	い	G major	8g-L	い	.
.	.	.	.	.	.	.	8a-	き	8bn	き	.	8a-	き	.
.	[16BBJk	.	.	.	.	.	.	.	.	.	.	.	.	.
.	8BBL]	.	.	.	.	.	8g-	な	8b-X	な	.	8g-	な	.
.	8BBJ	.	.	.	.	.	8a-J	ふ	8bnJ	ふ	.	8a-J	ふ	.
.	8.G-L	.	2d-	.	2b-	.	8a-L	り	8bL	り	D major	8a-L	り	.
.	.	.	.	.	.	.	8g-	に	8b-X	に	.	8g-	に	.
.	[16G-Jk	.	.	.	.	.	.	.	.	.	.	.	.	.
.	8G-L]	.	.	.	.	.	8e-	な	8g-	な	.	8e-	な	.
.	8G-J	.	.	.	.	.	8e-J	ん	8g-J	ん	.	8e-J	ん	.
=30	=30	=30	=30	=30	=30	=30	=30	=30	=30	=30	=30	=30	=30	=30
1ryy	8.EnL	.	2Bn	.	1a-	.	8g-L	ど	8b-L	ど	C major	8g-L	ど	.
.	.	.	.	.	.	.	8e-	だ	8g-	だ	.	8e-	だ	.
.	[16EJk	.	.	.	.	.	.	.	.	.	.	.	.	.
.	8EL]	.	.	.	.	.	8g-	ま	8b-	ま	.	8g-	ま	.
.	8EJ	.	.	.	.	.	8dd-J	さ	8eenJ	さ	.	8dd-J	さ	.
.	8.FL	.	2d-	.	.	.	8b-L	れ	8dd-L	れ	A major/C#	8b-L	れ	.
.	.	.	.	.	.	.	8a-	ー	8bn	ー	.	8a-	ー	.
.	[16FJk	.	.	.	.	.	.	.	.	.	.	.	.	.
.	8FL]	.	.	.	.	.	8a-	た	8bJ	た	.	8a-	た	.
.	8FJ	.	.	.	.	.	8a-J	な	8r	.	.	8a-J	な	.
=31	=31	=31	=31	=31	=31	=31	=31	=31	=31	=31	=31	=31	=31	=31
*^	*	*	*	*	*	*	*	*	*	*	*	*	*	*
4Rff/	8r	8.G-L	.	4r	.	4r	.	8a-L	に	4r	.	D major	8a-L	に	.
.	16r	.	.	.	.	.	.	8g-J	げ	.	.	.	8g-J	げ	.
.	[16Ra\	[16G-Jk	.	.	.	.	.	.	.	.	.	.	.	.	.
16r	16Ra\LL]	8G-L]	.	4d-	.	4g-	.	4e-	ない	4b-	.	.	4e-	ない	.
16r	16Ra\JJ	.	.	.	.	.	.	.	.	.	.	.	.	.	.
8Rff/	8r	8G-J	.	.	.	.	.	.	.	.	.	.	.	.	.
8r	8Ra\	8.A-L	.	2e-	.	2a-	.	8a-L	ひ	2bn	.	E minor-seventh	8a-L	ひ	.
16Rff/	16r	.	.	.	.	.	.	8g-	と	.	.	.	8g-	と	.
16r	[16Ra\	[16A-Jk	.	.	.	.	.	.	.	.	.	.	.	.	.
16r	16Ra\LL]	8A-L]	.	.	.	.	.	8e-	こ	.	.	.	8e-	こ	.
16r	16Ra\JJ	.	.	.	.	.	.	.	.	.	.	.	.	.	.
8Rff/	8r	8A-J	.	.	.	.	.	8g-J	と	.	.	.	8g-J	と	.
=32	=32	=32	=32	=32	=32	=32	=32	=32	=32	=32	=32	=32	=32	=32	=32
8r	8Ra\	8.B-L	.	4.f	.	4.b-	.	8d-L	ー	4.dd-	.	G- minor-seventh	8d-L	ー	.
16Rff/	16r	.	.	.	.	.	.	8d-	で	.	.	.	8d-	で	.
16r	[16Ra\	[16B-Jk	.	.	.	.	.	.	.	.	.	.	.	.	.
16r	16Ra\LL]	8B-L]	.	.	.	.	.	8bn	さ	.	.	.	8bn	さ	.
16r	16Ra\JJ	.	.	.	.	.	.	.	.	.	.	.	.	.	.
8Rff/	8r	[8E-J	.	[8g-	.	[8b-	.	8b-XJ	ー	[8ee-	.	.	8b-XJ	ー	.
8r	8Ra\	8E-L]	.	2g-]	.	2b-]	.	8b-L	え	2ee-]	.	B minor	8b-L	え	.
16Rff/	16r	[8E-J	.	.	.	.	.	8a-	こ	.	.	.	8a-	こ	.
16r	[16Ra\	.	.	.	.	.	.	.	.	.	.	.	.	.	.
16r	16Ra\LL]	16E-LL]	.	.	.	.	.	8a-	う	.	.	.	8a-	う	.
16r	16Ra\JJ	[16D-J	.	.	.	.	.	.	.	.	.	.	.	.	.
8Rff/	8r	8D-J]	.	.	.	.	.	8g-J	か	.	.	.	8g-J	か	.
*v	*v	*	*	*	*	*	*	*	*	*	*	*	*	*	*
=33	=33	=33	=33	=33	=33	=33	=33	=33	=33	=33	=33	=33	=33	=33
1ryy	8.BBnL	.	2g-	.	2bn	.	8g-L	い	2ee-	.	G major	8g-L	い	.
.	.	.	.	.	.	.	8a-	し	.	.	.	8a-	し	.
.	[16BBJk	.	.	.	.	.	.	.	.	.	.	.	.	.
.	8BBL]	.	.	.	.	.	8g-	て	.	.	.	8g-	て	.
.	8BBJ	.	.	.	.	.	8bnJ	る	.	.	.	8bnJ	る	.
.	8.D-L	.	2f	.	2a-	.	8b-XL	い	2dd-	.	A major	8b-XL	い	.
.	.	.	.	.	.	.	8g-	ま	.	.	.	8g-	ま	.
.	[16D-Jk	.	.	.	.	.	.	.	.	.	.	.	.	.
.	8D-L]	.	.	.	.	.	8a-	ご	.	.	.	8a-	ご	.
.	8D-J	.	.	.	.	.	8g-J	ろ	.	.	.	8g-J	ろ	.
=34	=34	=34	=34	=34	=34	=34	=34	=34	=34	=34	=34	=34	=34	=34
*^	*	*	*	*	*	*	*	*	*	*	*	*	*	*
8r	8Ra\	8.G-L	.	4r	.	4r	.	2r	.	4r	.	D major	4r	.	.
16Rff/	16r	.	.	.	.	.	.	.	.	.	.	.	.	.	.
16r	[16Ra\	[16G-Jk	.	.	.	.	.	.	.	.	.	.	.	.	.
16r	16Ra\LL]	8G-L]	.	4g-	.	4b-	oh	.	.	4dd-	.	.	4b-	oh	.
16r	16Ra\JJ	.	.	.	.	.	.	.	.	.	.	.	.	.	.
8Rff/	8r	8G-J	.	.	.	.	.	.	.	.	.	.	.	.	.
8Rff/L	2r	4D-	.	4f	.	4a-	oh	4r	.	4bn	.	.	4a-	oh	.
8Rbb/	.	.	.	.	.	.	.	.	.	.	.	.	.	.	.
8Raa/	.	4G-	.	8g-L	.	8b-L	oh	8r	.	8dd-L	.	.	8b-L	oh	.
8Rdd/J	.	.	.	8d-J	で	8d-J	で	8d-	で	8d-J	で	.	8d-J	で	.
=35	=35	=35	=35	=35	=35	=35	=35	=35	=35	=35	=35	=35	=35	=35	=35
4r	4Ra\	1BBn	.	8g-L	あ	8g-L	あ	8g-L	あ	8g-L	あ	G major	8g-L	あ	.
.	.	.	.	8a-	え	8a-	え	8a-	え	8a-	え	.	8a-	え	.
4Rff/	4r	.	.	8g-	て	8g-	て	8g-	て	8g-	て	.	8g-	て	.
.	.	.	.	8a-J	よ	8a-J	よ	8a-J	よ	8a-J	よ	.	8a-J	よ	.
4r	4Ra\	.	.	8g-L	か	8g-L	か	8g-L	か	8g-L	か	.	8g-L	か	.
.	.	.	.	8d-	っ	8d-	っ	8d-	っ	8d-	っ	.	8d-	っ	.
4Rff/	4r	.	.	8e-	た	8e-	た	8e-	た	8e-	た	.	8e-	た	.
.	.	.	.	[8d-J	ー	[8d-J	ー	[8d-J	ー	[8d-J	ー	.	[8d-J	ー	.
=36	=36	=36	=36	=36	=36	=36	=36	=36	=36	=36	=36	=36	=36	=36	=36
8r	8Ra\	8D-'	.	4d-]	.	4d-]	.	4d-]	.	4d-]	.	A major	4d-]	.	.
8r	8r	8r	.	.	.	.	.	.	.	.	.	.	.	.	.
4Rff/	4r	[4D-	.	8r	.	8r	.	8r	.	8r	.	.	8r	.	.
.	.	.	.	8a-	あ	8bn	あ	8bn	あ	8ee-	あ	.	8bn	あ	.
8Rff/	16r	2D-]	.	8g-L	り	8b-XL	り	8b-XL	り	8dd-L	り	.	8b-XL	り	.
.	16r	.	.	.	.	.	.	.	.	.	.	.	.	.	.
8r	16Ra\LL	.	.	8d-	が	8g-	が	8g-	が	8b-	が	.	8g-	が	.
.	16Ra\JJ	.	.	.	.	.	.	.	.	.	.	.	.	.	.
8Rff/L	4r	.	.	8e-	と	8a-	と	8a-	と	8bn	と	.	8a-	と	.
8Rdd/J	.	.	.	[8d-J	う	[8g-J	う	[8g-J	う	[8b-XJ	う	.	[8g-J	う	.
=37	=37	=37	=37	=37	=37	=37	=37	=37	=37	=37	=37	=37	=37	=37	=37
8r	8Ra\	8.G-L	.	8d-L]	.	8g-L]	.	2.g-]	.	8b-L]	.	.	8g-L]	.	.
16Rff/	16r	.	.	8d-J	.	8g-J	.	.	.	8b-J	hey	.	8g-J	.	.
16r	[16Ra\	[16G-Jk	.	.	.	.	.	.	.	.	.	.	.	.	.
16r	16Ra\LL]	8G-L]	.	8r	.	8r	.	.	.	8r	.	.	8r	.	.
16r	16Ra\JJ	.	.	.	.	.	.	.	.	.	.	.	.	.	.
8Rff/	8r	8G-J	.	8d-	.	8g-	.	.	.	8b-	hey	.	8g-	.	.
8r	8Ra\	8.G-L	.	8r	.	8r	.	.	.	8r	.	.	8r	.	.
16Rff/	16r	.	.	8d-	.	8g-	.	.	.	8b-	hey	.	8g-	.	.
16r	[16Ra\	[16G-Jk	.	.	.	.	.	.	.	.	.	.	.	.	.
16r	16Ra\LL]	8G-L]	.	8r	.	8r	.	8r	.	8r	.	.	8r	.	.
16r	16Ra\JJ	.	.	.	.	.	.	.	.	.	.	.	.	.	.
8Rff/	8r	8G-J	.	8d-	.	8g-	.	8g-	.	8b-	こ	D major	8g-	.	.
*v	*v	*	*	*	*	*	*	*	*	*	*	*	*	*	*
=38	=38	=38	=38	=38	=38	=38	=38	=38	=38	=38	=38	=38	=38	=38
2r	1D-	.	8b-L	の	8g-L	の	8b-L	の	8dd-L	の	.	8g-L	の	.
.	.	.	16b-L	お	16g-L	お	16b-L	お	16dd-L	お	.	16g-L	お	.
.	.	.	[16b-JJ	もい	[16g-JJ	もい	[16b-JJ	もい	[16dd-JJ	もい	.	[16g-JJ	もい	.
.	.	.	8b-L]	ー	8g-L]	ー	8b-L]	ー	8dd-L]	ー	.	8g-L]	ー	.
.	.	.	8b-J	よ	8g-J	よ	8b-J	よ	8dd-J	よ	.	8g-J	よ	.
2Rff/	.	.	4.b-	と	2r	.	2r	.	4.dd-	と	.	4.b-	と	.
.	.	.	8g-	ど	.	.	.	.	8b-	ど	.	8g-	ど	.
=39	=39	=39	=39	=39	=39	=39	=39	=39	=39	=39	=39	=39	=39	=39
*^	*	*	*	*	*	*	*	*	*	*	*	*	*	*
8r	8Ra\	8.G-L	.	8g-L	け	1b-	.	1dd-	ha	8b-L	け	D major	8g-L	け	D major
16Rff/	16r	.	.	8g-	な	.	.	.	.	8b-	な	.	8g-	な	.
16r	[16Ra\	[16G-Jk	.	.	.	.	.	.	.	.	.	.	.	.	.
16r	16Ra\LL]	8G-L]	.	8g-	み	.	.	.	.	8b-	み	.	8g-	み	.
16r	16Ra\JJ	.	.	.	.	.	.	.	.	.	.	.	.	.	.
8Rff/	8r	8G-J	.	8g-J	だ	.	.	.	.	8b-J	だ	.	8g-J	だ	.
8r	8Ra\	8.G-L	.	8g-L	こ	.	.	.	.	8b-L	こ	.	8g-L	こ	.
16Rff/	16r	.	.	8e-	ら	.	.	.	.	8g-	ら	.	8e-	ら	.
16r	[16Ra\	[16G-Jk	.	.	.	.	.	.	.	.	.	.	.	.	.
16r	16Ra\LL]	8G-L]	.	8g-	え	.	.	.	.	8b-	え	.	8g-	え	.
16r	16Ra\JJ	.	.	.	.	.	.	.	.	.	.	.	.	.	.
8Rff/	8r	8G-J	.	8a-J	わ	.	.	.	.	8bnJ	わ	.	8a-J	わ	.
*v	*v	*	*	*	*	*	*	*	*	*	*	*	*	*	*
=40	=40	=40	=40	=40	=40	=40	=40	=40	=40	=40	=40	=40	=40	=40
1ryy	8.FL	.	4b-	らっ	1a-	.	1dd-	.	4dd-	らっ	A major/C#	4b-	らっ	A major/C#
.	[16FJk	.	.	.	.	.	.	.	.	.	.	.	.	.
.	8FL]	.	4g-	て	.	.	.	.	4b-	て	.	4g-	て	.
.	8FJ	.	.	.	.	.	.	.	.	.	.	.	.	.
.	8.FL	.	4b-	いき	.	.	.	.	4dd-	いき	.	4b-	いき	.
.	[16FJk	.	.	.	.	.	.	.	.	.	.	.	.	.
.	8FL]	.	4g-	て	.	.	.	.	4b-	て	.	4g-	て	.
.	8FJ	.	.	.	.	.	.	.	.	.	.	.	.	.
=41	=41	=41	=41	=41	=41	=41	=41	=41	=41	=41	=41	=41	=41	=41
1ryy	8.E-L	.	16g-LL	る	1b-	.	1dd-	oo	16b-LL	る	B minor	16g-LL	る	B minor
.	.	.	16e-	く	.	.	.	.	16g-	く	.	16e-	く	.
.	.	.	16g-	ず	.	.	.	.	16b-	ず	.	16g-	ず	.
.	[16E-Jk	.	16e-JJ	れ	.	.	.	.	16g-JJ	れ	.	16e-JJ	れ	.
.	8E-L]	.	16g-LL	そ	.	.	.	.	16b-LL	そ	.	16g-LL	そ	.
.	.	.	16e-	う	.	.	.	.	16g-	う	.	16e-	う	.
.	8E-J	.	16g-	に	.	.	.	.	16b-	に	.	16g-	に	.
.	.	.	16e-JJ	な	.	.	.	.	16g-JJ	な	.	16e-JJ	な	.
.	8.E-L	.	16g-LL	り	.	.	.	.	16b-LL	り	.	16g-LL	り	.
.	.	.	16e-	な	.	.	.	.	16g-	な	.	16e-	な	.
.	.	.	16g-	が	.	.	.	.	16b-	が	.	16g-	が	.
.	[16E-Jk	.	16e-JJ	ら	.	.	.	.	16g-JJ	ら	.	16e-JJ	ら	.
.	8E-L]	.	16g-LL	ま	.	.	.	.	16b-LL	ま	.	16g-LL	ま	.
.	.	.	16g-	い	.	.	.	.	16b-	い	.	16g-	い	.
.	8E-J	.	16a-	に	.	.	.	.	16bn	に	.	16a-	に	.
.	.	.	16a-JJ	ち	.	.	.	.	16bJJ	ち	.	16a-JJ	ち	.
=42	=42	=42	=42	=42	=42	=42	=42	=42	=42	=42	=42	=42	=42	=42
1ryy	8.D-L	.	8.b-L	び	4r	.	4r	.	8.dd-L	び	A major	8.b-L	び	A major
.	[16D-Jk	.	[16bnJk	び	.	.	.	.	[16ee-Jk	び	.	[16bnJk	び	.
.	8D-L]	.	8bL]	ーっ	4a-	.	4dd-	oo	8ee-L]	ーっ	.	8bL]	ーっ	.
.	8D-J	.	16a-L	て	.	.	.	.	16bnL	て	.	16a-L	て	.
.	.	.	16g-JJ	い	.	.	.	.	16b-XJJ	い	.	16g-JJ	い	.
.	8.D-L	.	16a-KL	る	4b-	.	4ee-	.	16bnKL	る	.	16a-KL	る	.
.	.	.	8.g-J	ー	.	.	.	.	8.b-XJ	ー	.	8.g-J	ー	.
.	[16D-Jk	.	.	.	.	.	.	.	.	.	.	.	.	.
.	8D-L]	.	8r	.	4a-	.	4dd-	.	8a-L	.	.	8r	.	.
.	8D-J	.	8e-	つ	.	.	.	.	8g-J	つ	.	8e-	つ	.
=43	=43	=43	=43	=43	=43	=43	=43	=43	=43	=43	=43	=43	=43	=43
1ryy	8.BBnL	.	8g-L	か	2g-	.	2bn	.	8bnL	か	G major	8g-L	か	G major
.	.	.	8e-	れ	.	.	.	.	8g-	れ	.	8e-	れ	.
.	[16BBJk	.	.	.	.	.	.	.	.	.	.	.	.	.
.	8BBL]	.	8g-	は	.	.	.	.	8b	は	.	8g-	は	.
.	8BBJ	.	8e-J	て	.	.	.	.	8g-J	て	.	8e-J	て	.
.	8.D-L	.	8a-L	る	2a-	.	2dd-	.	8dd-L	る	A major	8a-L	る	A major
.	.	.	8g-	ま	.	.	.	.	8a-	ま	.	8g-	ま	.
.	[16D-Jk	.	.	.	.	.	.	.	.	.	.	.	.	.
.	8D-L]	.	8a-	で	.	.	.	.	8dd-	で	.	8a-	で	.
.	8D-J	.	8d-J	く	.	.	.	.	8a-J	く	.	8d-J	く	.
=44	=44	=44	=44	=44	=44	=44	=44	=44	=44	=44	=44	=44	=44	=44
1ryy	8.BB-L	.	8.b-L	り	4b-	.	4dd-	oo	8.dd-L	り	F# minor-seventh	8.b-L	り	F# minor-seventh
.	[16BB-Jk	.	[16a-Jk	か	.	.	.	.	[16bnJk	か	.	[16a-Jk	か	.
.	8BB-L]	.	8a-L]	ー	4a-	.	4bn	.	8bL]	ー	.	8a-L]	ー	.
.	8BB-J	.	8g-J	え	.	.	.	.	8b-XJ	え	.	8g-J	え	.
.	4E-	.	4g-	す	4g-	.	4b-X	.	4b-	す	B minor	4g-	す	B minor
.	4D-	.	8e-L	き	4f	.	4a-	.	8g-L	き	.	8e-L	き	.
.	.	.	8b-J	っ	.	.	.	.	8dd-J	っ	.	8b-J	っ	.
=45	=45	=45	=45	=45	=45	=45	=45	=45	=45	=45	=45	=45	=45	=45
1ryy	8.BBnL	.	2a-	と	4r	.	4r	.	2bn	と	G major	2a-	と	G major
.	[16BBJk	.	.	.	.	.	.	.	.	.	.	.	.	.
.	8BBL]	.	.	.	8e-L	き	8g-L	き	.	.	.	.	.	.
.	8BBJ	.	.	.	8b-J	っ	8dd-J	っ	.	.	.	.	.	.
.	8.BBL	.	4r	.	4a-	と	4bn	と	4r	.	.	4r	.	.
.	[16BBJk	.	.	.	.	.	.	.	.	.	.	.	.	.
.	8BBL]	.	8e-L	ず	8e-L	ず	8g-L	ず	8g-L	ず	.	8e-L	ず	.
.	8BBJ	.	8b-J	っ	8b-J	っ	8dd-J	っ	8ffJ	っ	.	8b-J	っ	.
=46	=46	=46	=46	=46	=46	=46	=46	=46	=46	=46	=46	=46	=46	=46
*^	*	*	*	*	*	*	*	*	*	*	*	*	*	*
8r	8Ra\	8.D-L	.	8b-L	と	8b-L	と	8dd-L	と	8ffL	と	A major	8b-L	と	A major
16Rff/	16r	.	.	[8fJ	ー	[8a-J	ー	[8bnJ	ー	[8dd-J	ー	.	[8fJ	ー	.
16r	[16Ra\	[16D-Jk	.	.	.	.	.	.	.	.	.	.	.	.	.
16r	16Ra\LL]	8D-L]	.	4f]	.	4a-]	.	4b]	.	4dd-]	.	.	4f]	.	.
16r	16Ra\JJ	.	.	.	.	.	.	.	.	.	.	.	.	.	.
8Rff/	8r	8D-J	.	.	.	.	.	.	.	.	.	.	.	.	.
8.Rff/L	4r	8.D-L	.	2f	ah	2b-	.	2b-X	ah	2dd-	.	.	2dd-	.	.
[16Rff/Jk	.	[16D-Jk	.	.	.	.	.	.	.	.	.	.	.	.	.
8Rff/L]	8r	8D-L]	.	.	.	.	.	.	.	.	.	.	.	.	.
8Raa/J	8r	8D-J	.	.	.	.	.	.	.	.	.	.	.	.	.
=47	=47	=47	=47	=47	=47	=47	=47	=47	=47	=47	=47	=47	=47	=47	=47
8r	8Ra\	8.G-L	.	1g-	.	8g-L	.	1dd-	.	8b-L	.	D major	8g-L	.	D major
16Rff/	16r	.	.	.	.	8g-	ど	.	.	8b-	ど	.	8g-	ど	.
16r	[16Ra\	[16G-Jk	.	.	.	.	.	.	.	.	.	.	.	.	.
16r	16Ra\LL]	8G-L]	.	.	.	8g-	れ	.	.	8b-	れ	.	8g-	れ	.
16r	16Ra\JJ	.	.	.	.	.	.	.	.	.	.	.	.	.	.
8Rff/	8r	8G-J	.	.	.	8g-J	だ	.	.	8b-J	だ	.	8g-J	だ	.
8r	8Ra\	8.G-L	.	.	.	8g-L	け	.	.	8b-L	け	.	8g-L	け	.
16Rff/	16r	.	.	.	.	8e-	か	.	.	8g-	か	.	8e-	か	.
16r	[16Ra\	[16G-Jk	.	.	.	.	.	.	.	.	.	.	.	.	.
16r	16Ra\LL]	8G-L]	.	.	.	8g-	こ	.	.	8b-	こ	.	8g-	こ	.
16r	16Ra\JJ	.	.	.	.	.	.	.	.	.	.	.	.	.	.
8Rff/	8r	8G-J	.	.	.	8a-J	が	.	.	8bnJ	が	.	8a-J	が	.
*v	*v	*	*	*	*	*	*	*	*	*	*	*	*	*	*
=48	=48	=48	=48	=48	=48	=48	=48	=48	=48	=48	=48	=48	=48	=48
1ryy	8.FL	.	4r	.	4b-	つら	4r	.	4dd-	つら	A major/C#	4b-	つら	A major/C#
.	[16FJk	.	.	.	.	.	.	.	.	.	.	.	.	.
.	8FL]	.	4g-	.	4g-	くて	4dd-	oo	4b-	くて	.	4g-	くて	.
.	8FJ	.	.	.	.	.	.	.	.	.	.	.	.	.
.	8.FL	.	4b-	.	4b-	くら	4gg-	.	4dd-	くら	.	4b-	くら	.
.	[16FJk	.	.	.	.	.	.	.	.	.	.	.	.	.
.	8FL]	.	4a-	.	4g-	くて	4ff	.	4b-	くて	.	4g-	くて	.
.	8FJ	.	.	.	.	.	.	.	.	.	.	.	.	.
=49	=49	=49	=49	=49	=49	=49	=49	=49	=49	=49	=49	=49	=49	=49
1ryy	8.E-L	.	1g-	.	16g-LL	も	1ee-	.	16b-LL	も	B minor	16g-LL	も	B minor
.	.	.	.	.	16e-	き	.	.	16g-	き	.	16e-	き	.
.	.	.	.	.	16g-	の	.	.	16b-	の	.	16g-	の	.
.	[16E-Jk	.	.	.	16e-JJ	う	.	.	16g-JJ	う	.	16e-JJ	う	.
.	8E-L]	.	.	.	16g-LL	よ	.	.	16b-LL	よ	.	16g-LL	よ	.
.	.	.	.	.	16e-	り	.	.	16g-	り	.	16e-	り	.
.	8E-J	.	.	.	16g-	も	.	.	16b-	も	.	16g-	も	.
.	.	.	.	.	16e-JJ	ふ	.	.	16g-JJ	ふ	.	16e-JJ	ふ	.
.	8.E-L	.	.	.	16g-LL	あ	.	.	16b-LL	あ	.	16g-LL	あ	.
.	.	.	.	.	16e-	ん	.	.	16g-	ん	.	16e-	ん	.
.	.	.	.	.	16g-	な	.	.	16b-	な	.	16g-	な	.
.	[16E-Jk	.	.	.	16e-JJ	あ	.	.	16g-JJ	あ	.	16e-JJ	あ	.
.	8E-L]	.	.	.	16g-LL	し	.	.	16b-LL	し	.	16g-LL	し	.
.	.	.	.	.	16g-J	た	.	.	16b-J	た	.	16g-J	た	.
.	8E-J	.	.	.	8a-J	が	.	.	8bnJ	が	.	8a-J	が	.
=50	=50	=50	=50	=50	=50	=50	=50	=50	=50	=50	=50	=50	=50	=50
1ryy	8.D-L	.	2f	.	8.b-L	ふ	2dd-	.	8.dd-L	ふ	A major	8.b-L	ふ	A major
.	[16D-Jk	.	.	.	[16bnJk	え	.	.	[16ee-Jk	え	.	[16bnJk	え	.
.	8D-L]	.	.	.	8bL]	ー	.	.	8ee-L]	ー	.	8bL]	ー	.
.	8D-J	.	.	.	16a-L	て	.	.	16bnL	て	.	16a-L	て	.
.	.	.	.	.	16g-JJ	ー	.	.	16b-XJJ	ー	.	16g-JJ	ー	.
.	8.D-L	.	4d-	.	16a-KL	も	4a-	oo	16bnKL	も	.	16a-KL	も	.
.	.	.	.	.	8.g-J	.	.	.	8.b-XJ	.	.	8.g-J	.	.
.	[16D-Jk	.	.	.	.	.	.	.	.	.	.	.	.	.
.	8D-L]	.	4dn	.	8r	.	4b-	.	8r	.	.	8r	.	.
.	8D-J	.	.	.	8d-	な	.	.	8f	な	.	8d-	な	.
=51	=51	=51	=51	=51	=51	=51	=51	=51	=51	=51	=51	=51	=51	=51
1ryy	8.BBnL	.	2e-	.	8g-L	や	2bn	.	8bnL	や	G major	8g-L	や	G major
.	.	.	.	.	8e-	ん	.	.	8b-X	ん	.	8e-	ん	.
.	[16BBJk	.	.	.	.	.	.	.	.	.	.	.	.	.
.	8BBL]	.	.	.	8g-	だ	.	.	8bn	だ	.	8g-	だ	.
.	8BBJ	.	.	.	8e-J	り	.	.	8b-XJ	り	.	8e-J	り	.
.	8.D-L	.	2f	.	8a-L	な	2dd-	.	8dd-L	な	A major	8a-L	な	A major
.	.	.	.	.	8g-	い	.	.	8b-	い	.	8g-	い	.
.	[16D-Jk	.	.	.	.	.	.	.	.	.	.	.	.	.
.	8D-L]	.	.	.	8a-	た	.	.	8dd-	た	.	8a-	た	.
.	8D-J	.	.	.	8g-J	り	.	.	8b-J	り	.	8g-J	り	.
=52	=52	=52	=52	=52	=52	=52	=52	=52	=52	=52	=52	=52	=52	=52
1ryy	4G-	.	8g-L	す	8b-L	す	8dd-L	す	8dd-L	す	D major	8b-L	す	D major
.	.	.	8g-J	る	8b-J	る	8dd-J	る	8dd-J	る	.	8b-J	る	.
.	4F	.	4a-	きょう	4bn	きょう	4ee-	きょう	4ee-	きょう	A major/C#	4bn	きょう	A major/C#
.	4E-	.	4g-	も	4b-X	も	4dd-	も	4dd-	も	B minor	4b-X	も	B minor
.	4D-	.	4r	.	8e-L	す	4r	.	4r	.	A major	8e-L	す	A major
.	.	.	.	.	8b-J	す	.	.	.	.	.	8b-J	す	.
=53	=53	=53	=53	=53	=53	=53	=53	=53	=53	=53	=53	=53	=53	=53
1ryy	8.BBnL	.	1g-	.	4a-	め	1bn	ah	1ee-	ah	G major	4a-	め	G major
.	[16BBJk	.	.	.	.	.	.	.	.	.	.	.	.	.
.	8BBL]	.	.	.	8r	.	.	.	.	.	.	8r	.	.
.	8BBJ	.	.	.	8e-	き	.	.	.	.	.	8e-	き	.
.	8.BBL	.	.	.	8e-L	み	.	.	.	.	.	8e-L	み	.
.	.	.	.	.	8e-	ら	.	.	.	.	.	8e-	ら	.
.	[16BBJk	.	.	.	.	.	.	.	.	.	.	.	.	.
.	8BBL]	.	.	.	8e-	し	.	.	.	.	.	8e-	し	.
.	8BBJ	.	.	.	8b-J	く	.	.	.	.	.	8b-J	く	.
=54	=54	=54	=54	=54	=54	=54	=54	=54	=54	=54	=54	=54	=54	=54
*^	*	*	*	*	*	*	*	*	*	*	*	*	*	*
4r	16Ra\LL	1r	.	1r	.	8b-L	こ	1r	.	8dd-L	こ	A major	8b-L	こ	A major
.	16Ra\	.	.	.	.	.	.	.	.	.	.	.	.	.	.
.	16Ra\	.	.	.	.	8b-	こ	.	.	8dd-	こ	.	8b-	こ	.
.	16Ra\JJ	.	.	.	.	.	.	.	.	.	.	.	.	.	.
4r	16Ra\LL	.	.	.	.	8b-	ろ	.	.	8dd-	ろ	.	8b-	ろ	.
.	16Ra\	.	.	.	.	.	.	.	.	.	.	.	.	.	.
.	16Ra\JJ	.	.	.	.	8b-J	お	.	.	8dd-J	お	.	8b-J	お	.
.	16r	.	.	.	.	.	.	.	.	.	.	.	.	.	.
4Rff/	2r	.	.	.	.	8bnL	ど	.	.	8ee-L	ど	.	8bnL	ど	.
.	.	.	.	.	.	8b-X	る	.	.	8dd-	る	.	8b-X	る	.
4r	.	.	.	.	.	8a-	ほ	.	.	8bn	ほ	.	8a-	ほ	.
.	.	.	.	.	.	8g-J	う	.	.	8b-XJ	う	.	8g-J	う	.
*v	*v	*	*	*	*	*	*	*	*	*	*	*	*	*	*
=55	=55	=55	=55	=55	=55	=55	=55	=55	=55	=55	=55	=55	=55	=55
*M2/4	*M2/4	*	*M2/4	*	*M2/4	*	*M2/4	*	*M2/4	*	*	*M2/4	*	*
4r	4r	.	2r	.	2r	.	2r	.	2r	.	.	2r	.	.
4Rff/	4D-	.	.	.	.	.	.	.	.	.	.	.	.	.
=56	=56	=56	=56	=56	=56	=56	=56	=56	=56	=56	=56	=56	=56	=56
*M4/4	*M4/4	*	*M4/4	*	*M4/4	*	*M4/4	*	*M4/4	*	*	*M4/4	*	*
*^	*	*	*	*	*	*	*	*	*	*	*	*	*	*
8r	8Ra\	2BBn	.	2Bn	.	2e-	.	2g-	.	2bn	woh	.	1r	.	.
8Rff/	8r	.	.	.	.	.	.	.	.	.	.	.	.	.	.
16r	8Ra\	.	.	.	.	.	.	.	.	.	.	.	.	.	.
16Ree/KL	.	.	.	.	.	.	.	.	.	.	.	.	.	.	.
8Rff/J	8r	.	.	.	.	.	.	.	.	.	.	.	.	.	.
8r	8Ra\	2D-	.	2d-	.	2f	.	2a-	.	2dd-	.	.	.	.	.
8Rff/	8r	.	.	.	.	.	.	.	.	.	.	.	.	.	.
16r	8Ra\	.	.	.	.	.	.	.	.	.	.	.	.	.	.
16Ree/KL	.	.	.	.	.	.	.	.	.	.	.	.	.	.	.
8Rff/J	8r	.	.	.	.	.	.	.	.	.	.	.	.	.	.
=57	=57	=57	=57	=57	=57	=57	=57	=57	=57	=57	=57	=57	=57	=57	=57
8Rff/	8r	8.G-L	.	8.g-L	.	8.g-L	.	8.b-L	.	8.ee-L	oh	.	1r	.	.
8r	16Ra\LL	.	.	.	.	.	.	.	.	.	.	.	.	.	.
.	16Ra\JJ	16FJk	.	16fJk	.	16fJk	.	16a-Jk	.	16dd-Jk	.	.	.	.	.
8r	4r	8r	.	8r	.	8r	.	8r	.	8r	.	.	.	.	.
8Rff/	.	[8E-	.	[8e-	.	[8e-	.	[8g-	.	[8b-	oh	.	.	.	.
8r	8Ra\L	4E-]	.	4e-]	.	4e-]	.	4g-]	.	4b-]	.	.	.	.	.
8r	8Ra\J	.	.	.	.	.	.	.	.	.	.	.	.	.	.
8Rff/L	4r	4D-	.	4d-	.	4d-	.	4f	.	4a-	.	.	.	.	.
16Ree/L	.	.	.	.	.	.	.	.	.	.	.	.	.	.	.
16Ree/JJ	.	.	.	.	.	.	.	.	.	.	.	.	.	.	.
=58	=58	=58	=58	=58	=58	=58	=58	=58	=58	=58	=58	=58	=58	=58	=58
8r	8Ra\	2BBn	.	4e-	.	4e-	.	4g-	.	4bn	woh	.	1r	.	.
16Rff/	16r	.	.	.	.	.	.	.	.	.	.	.	.	.	.
16r	[16Ra\	.	.	.	.	.	.	.	.	.	.	.	.	.	.
16r	16Ra\LL]	.	.	4e-	.	4g-	.	4b-	.	4ee-	.	.	.	.	.
16r	16Ra\JJ	.	.	.	.	.	.	.	.	.	.	.	.	.	.
8Rff/	8r	.	.	.	.	.	.	.	.	.	.	.	.	.	.
8r	8Ra\	2D-	.	8d-L	.	8fL	.	8a-L	.	8dd-L	oh	.	.	.	.
16Rff/	16r	.	.	8B-	.	8d-	.	8f	.	8b-X	.	.	.	.	.
16r	[16Ra\	.	.	.	.	.	.	.	.	.	.	.	.	.	.
16r	16Ra\LL]	.	.	8e-	.	8a-	.	8bn	.	8ee-	.	.	.	.	.
16r	16Ra\JJ	.	.	.	.	.	.	.	.	.	.	.	.	.	.
8Rff/	8r	.	.	8d-J	.	8g-J	.	8b-XJ	.	8dd-J	.	.	.	.	.
=59	=59	=59	=59	=59	=59	=59	=59	=59	=59	=59	=59	=59	=59	=59	=59
8r	8Ra\	8G-L	.	2r	.	1r	.	1r	.	1r	.	.	2r	.	.
8Rff/L	8r	8G-	.	.	.	.	.	.	.	.	.	.	.	.	.
8Rff/J	8r	8G-	.	.	.	.	.	.	.	.	.	.	.	.	.
8r	16Ra\LL	[8G-J	.	.	.	.	.	.	.	.	.	.	.	.	.
.	16Ra\JJ	.	.	.	.	.	.	.	.	.	.	.	.	.	.
4Rff/	2r	2G-]	.	8B-L	こ	.	.	.	.	.	.	.	8B-L	こ	.
.	.	.	.	8Bn	こ	.	.	.	.	.	.	.	8Bn	こ	.
4r	.	.	.	8d-	に	.	.	.	.	.	.	.	8d-	に	.
.	.	.	.	8d-J	た	.	.	.	.	.	.	.	8d-J	た	.
=60	=60	=60	=60	=60	=60	=60	=60	=60	=60	=60	=60	=60	=60	=60	=60
8r	8Ra\	8.A-L	.	8e-L	ど	1g-	.	1bn	.	1ee-	oo	E minor-seventh	8e-L	ど	.
16Rff/	16r	.	.	8e-	り	.	.	.	.	.	.	.	8e-	り	.
16r	[16Ra\	[16A-Jk	.	.	.	.	.	.	.	.	.	.	.	.	.
16r	16Ra\LL]	8A-L]	.	8e-	つ	.	.	.	.	.	.	.	8e-	つ	.
16r	16Ra\JJ	.	.	.	.	.	.	.	.	.	.	.	.	.	.
8Rff/	8r	8A-J	.	8e-J	く	.	.	.	.	.	.	.	8e-J	く	.
8r	8Ra\	8.A-L	.	8e-L	ま	.	.	.	.	.	.	.	8e-L	ま	.
16Rff/	16r	.	.	8d-	え	.	.	.	.	.	.	.	8d-	え	.
16r	[16Ra\	[16A-Jk	.	.	.	.	.	.	.	.	.	.	.	.	.
16r	16Ra\LL]	8A-L]	.	8e-	に	.	.	.	.	.	.	.	8e-	に	.
16r	16Ra\JJ	.	.	.	.	.	.	.	.	.	.	.	.	.	.
8Rff/	8r	8A-J	.	[8d-J	ー	.	.	.	.	.	.	.	[8d-J	ー	.
*v	*v	*	*	*	*	*	*	*	*	*	*	*	*	*	*
=61	=61	=61	=61	=61	=61	=61	=61	=61	=61	=61	=61	=61	=61	=61
1ryy	8.D-L	.	4d-]	.	1f	.	1a-	.	1dd-	.	A major	4d-]	.	.
.	[16D-Jk	.	.	.	.	.	.	.	.	.	.	.	.	.
.	8D-L]	.	8r	.	.	.	.	.	.	.	.	8r	.	.
.	8D-J	.	8d-	い	.	.	.	.	.	.	.	8d-	い	.
.	8.D-L	.	4d-	ろん	.	.	.	.	.	.	.	4d-	ろん	.
.	[16D-Jk	.	.	.	.	.	.	.	.	.	.	.	.	.
.	8D-L]	.	8d-L	な	.	.	.	.	.	.	.	8d-L	な	.
.	8D-J	.	8B-J	け	.	.	.	.	.	.	.	8B-J	け	.
=62	=62	=62	=62	=62	=62	=62	=62	=62	=62	=62	=62	=62	=62	=62
1ryy	8.BB-L	.	8fL	し	1f	.	1a-	.	2dd-	oo	F# minor-seventh	8fL	し	.
.	.	.	8f	き	.	.	.	.	.	.	.	8f	き	.
.	[16BB-Jk	.	.	.	.	.	.	.	.	.	.	.	.	.
.	8BB-L]	.	8f	を	.	.	.	.	.	.	.	8f	を	.
.	8BB-J	.	8fJ	み	.	.	.	.	.	.	.	8fJ	み	.
.	8.BB-L	.	8b-L	て	.	.	.	.	2ff	.	.	8b-L	て	.
.	.	.	8a-	き	.	.	.	.	.	.	.	8a-	き	.
.	[16BB-Jk	.	.	.	.	.	.	.	.	.	.	.	.	.
.	8BB-L]	.	8g-	たん	.	.	.	.	.	.	.	8g-	たん	.
.	8BB-J	.	[8a-J	だ	.	.	.	.	.	.	.	[8a-J	だ	.
=63	=63	=63	=63	=63	=63	=63	=63	=63	=63	=63	=63	=63	=63	=63
1ryy	8.E-L	.	8a-L]	ー	[1g-	.	4.b-	.	[1ee-	.	B minor	8a-L]	ー	.
.	.	.	16b-L	ろ	.	.	.	.	.	.	.	16b-L	ろ	.
.	[16E-Jk	.	16a-JJ	う	.	.	.	.	.	.	.	16a-JJ	う	.
.	8E-L]	.	8g-L	ー	.	.	.	.	.	.	.	8g-L	ー	.
.	8E-J	.	8g-J	ま	.	.	8b-	ま	.	.	.	8g-J	ま	.
.	8.D-L	.	8g-L	ち	.	.	8b-L	ち	.	.	.	8g-L	ち	.
.	.	.	8g-	こ	.	.	8b-	こ	.	.	.	8g-	こ	.
.	[16D-Jk	.	.	.	.	.	.	.	.	.	.	.	.	.
.	8D-L]	.	8g-	が	.	.	8b-	が	.	.	.	8g-	が	.
.	8D-J	.	8e-J	れ	.	.	8g-J	れ	.	.	.	8e-J	れ	.
=64	=64	=64	=64	=64	=64	=64	=64	=64	=64	=64	=64	=64	=64	=64
1ryy	8.BBnL	.	8.a-L	て	4g-]	.	8.bnL	て	4ee-]	.	G major	8.a-L	て	.
.	[16BBJk	.	8.b-	い	.	.	8.dd-	い	.	.	.	8.b-J	い	.
.	8BBL]	.	.	.	8r	.	.	.	8r	.	.	.	.	.
.	8BBJ	.	8bnJ	た	8g-	ま	8ee-J	た	8b-	ま	.	8g-	ま	.
.	8.BBL	.	[2b-X	ー	8g-L	ち	[2dd-	ー	8b-L	ち	.	8g-L	ち	.
.	.	.	.	.	8g-	こ	.	.	8b-	こ	.	8g-	こ	.
.	[16BBJk	.	.	.	.	.	.	.	.	.	.	.	.	.
.	8BBL]	.	.	.	8g-	が	.	.	8b-	が	.	8g-	が	.
.	8BBJ	.	.	.	8g-J	れ	.	.	8b-J	れ	.	8g-J	れ	.
=65	=65	=65	=65	=65	=65	=65	=65	=65	=65	=65	=65	=65	=65	=65
1ryy	8.BBnL	.	2b-]	.	8.a-L	て	2dd-]	.	8.bnL	て	.	8.a-L	て	.
.	[16BBJk	.	.	.	8.b-	い	.	.	8.dd-	い	.	8.b-	い	.
.	8BBL]	.	.	.	.	.	.	.	.	.	.	.	.	.
.	8BBJ	.	.	.	8bnJ	た	.	.	8ee-J	た	.	8bnJ	た	.
.	8.BBL	.	8r	.	8b-XL	ー	8r	.	8dd-L	ー	.	8r	.	.
.	.	.	8fL	で	8a-	で	8a-L	で	8dd-	で	.	8a-L	で	.
.	[16BBJk	.	.	.	.	.	.	.	.	.	.	.	.	.
.	8BBL]	.	8f	あ	8a-	あ	8a-	あ	8dd-	あ	.	8a-	あ	.
.	8BBJ	.	8d-J	え	8g-J	え	8g-J	え	8bJ	え	.	8g-J	え	.
=66	=66	=66	=66	=66	=66	=66	=66	=66	=66	=66	=66	=66	=66	=66
1ryy	8.D-L	.	8.fL	て	8.a-L	て	8.a-L	て	8.dd-L	て	A major	8.a-L	て	.
.	[16D-Jk	.	[16fJk	よ	[16a-Jk	よ	[16a-Jk	よ	[16dd-Jk	よ	.	[16a-Jk	よ	.
.	8D-L]	.	8fL]	ー	8a-L]	ー	8a-L]	ー	8dd-L]	ー	.	8a-L]	ー	.
.	8D-J	.	8d-J	か	8g-J	か	8g-J	か	8bnJ	か	.	8g-J	か	.
.	8.D-L	.	8.fL	っ	8.a-L	っ	8.a-L	っ	8.dd-L	っ	.	8.a-L	っ	.
.	[16D-Jk	.	[16fJk	た	[16a-Jk	た	[16a-Jk	た	[16dd-Jk	た	.	[16a-Jk	た	.
.	8D-L]	.	8fL]	ー	8a-L]	ー	8a-L]	ー	8dd-L]	ー	.	8a-L]	ー	.
.	8D-J	.	8d-J	あ	8fJ	あ	8fJ	あ	8dd-J	あ	.	8fJ	あ	.
=67	=67	=67	=67	=67	=67	=67	=67	=67	=67	=67	=67	=67	=67	=67
*^	*	*	*	*	*	*	*	*	*	*	*	*	*	*
8.Rff/L	4r	8.BB-L	.	8.fL	り	8.b-L	り	8.dd-L	り	8.ffL	り	F# minor-seventh	8.dd-L	り	.
[16Rff/Jk	.	[16BB-Jk	.	[16fJk	が	[16b-Jk	が	[16dd-Jk	が	[16ffJk	が	.	[16dd-Jk	が	.
8Rff/L]	4r	8BB-L]	.	8fL]	ー	8b-L]	ー	8dd-L]	ー	8ffL]	ー	.	8dd-L]	ー	.
8Raa/J	.	8BBnJ	.	8g-J	と	8bnJ	と	8ee-J	と	8gg-J	と	.	8ee-J	と	.
8r	8Ra\	2BB-X	.	4f	う	4b-X	う	4dd-	う	4ff	う	.	4dd-	う	.
8Rff/	16r	.	.	.	.	.	.	.	.	.	.	.	.	.	.
.	16Ra\	.	.	.	.	.	.	.	.	.	.	.	.	.	.
4Rff/	4r	.	.	8r	.	8r	.	8r	.	8r	.	.	8r	.	.
.	.	.	.	8d-	こ	8d-	こ	8d-	こ	8g-	こ	.	8d-	こ	.
=68	=68	=68	=68	=68	=68	=68	=68	=68	=68	=68	=68	=68	=68	=68	=68
16Ree/LL	4r	1r	.	8fL	の	8b-L	の	8b-L	の	8dd-L	の	A major	8b-L	の	.
16Ree/	.	.	.	.	.	.	.	.	.	.	.	.	.	.	.
16Ree/	.	.	.	16fL	お	16b-L	お	16b-L	お	16dd-L	お	.	16b-L	お	.
16Ree/JJ	.	.	.	[16fJJ	もい	[16b-JJ	もい	[16b-JJ	もい	[16dd-JJ	もい	.	[16b-JJ	もい	.
16Ree/LL	4r	.	.	8fL]	ー	8b-L]	ー	8b-L]	ー	8dd-L]	ー	.	8b-L]	ー	.
16Ree/J	.	.	.	.	.	.	.	.	.	.	.	.	.	.	.
8Rff/J	.	.	.	8fJ	よ	8b-J	よ	8b-J	よ	8dd-J	よ	.	8b-J	よ	.
2Rff/	2r	.	.	4.g-	と	4.b-	と	4.b-	と	4.dd-	と	.	4.b-	と	.
.	.	.	.	8d-	ど	8g-	ど	8g-	ど	8b-	ど	.	8g-	ど	.
*v	*v	*	*	*	*	*	*	*	*	*	*	*	*	*	*
=69	=69	=69	=69	=69	=69	=69	=69	=69	=69	=69	=69	=69	=69	=69
2Rff/	1G-	.	1d-	け	1g-	け	8g-L	け	1b-	け	D major	8g-L	け	.
.	.	.	.	.	.	.	8g-	な	.	.	.	8g-	な	.
.	.	.	.	.	.	.	8g-	み	.	.	.	8g-	み	.
.	.	.	.	.	.	.	8g-J	だ	.	.	.	8g-J	だ	.
4r	.	.	.	.	.	.	8g-L	こ	.	.	.	8g-L	こ	.
.	.	.	.	.	.	.	8e-	ら	.	.	.	8e-	ら	.
4Ree/	.	.	.	.	.	.	8g-	え	.	.	.	8g-	え	.
.	.	.	.	.	.	.	8a-J	わ	.	.	.	8a-J	わ	.
=70	=70	=70	=70	=70	=70	=70	=70	=70	=70	=70	=70	=70	=70	=70
4r	1F	.	1r	.	2r	.	4b-	らっ	2r	.	A major/C#	4b-	らっ	.
4Ree/	.	.	.	.	.	.	4g-	て	.	.	.	4g-	て	.
4r	.	.	.	.	2r	.	4b-	いき	2r	.	.	4b-	いき	.
4Ree/	.	.	.	.	.	.	4g-	て	.	.	.	4g-	て	.
=71	=71	=71	=71	=71	=71	=71	=71	=71	=71	=71	=71	=71	=71	=71
4r	1E-	.	1r	.	2r	.	16g-LL	る	2r	.	B minor	16g-LL	る	.
.	.	.	.	.	.	.	16e-	く	.	.	.	16e-	く	.
.	.	.	.	.	.	.	16g-	ず	.	.	.	16g-	ず	.
.	.	.	.	.	.	.	16e-JJ	れ	.	.	.	16e-JJ	れ	.
4Ree/	.	.	.	.	.	.	16g-LL	そ	.	.	.	16g-LL	そ	.
.	.	.	.	.	.	.	16e-	う	.	.	.	16e-	う	.
.	.	.	.	.	.	.	16g-	に	.	.	.	16g-	に	.
.	.	.	.	.	.	.	16e-JJ	な	.	.	.	16e-JJ	な	.
4r	.	.	.	.	2r	.	16g-LL	り	2r	.	.	16g-LL	り	.
.	.	.	.	.	.	.	16e-	な	.	.	.	16e-	な	.
.	.	.	.	.	.	.	16g-	が	.	.	.	16g-	が	.
.	.	.	.	.	.	.	16e-JJ	ら	.	.	.	16e-JJ	ら	.
4Ree/	.	.	.	.	.	.	16g-LL	ま	.	.	.	16g-LL	ま	.
.	.	.	.	.	.	.	16g-	い	.	.	.	16g-	い	.
.	.	.	.	.	.	.	16a-	に	.	.	.	16a-	に	.
.	.	.	.	.	.	.	16a-JJ	ち	.	.	.	16a-JJ	ち	.
=72	=72	=72	=72	=72	=72	=72	=72	=72	=72	=72	=72	=72	=72	=72
*^	*	*	*	*	*	*	*	*	*	*	*	*	*	*
4r	4r	1D-	.	1r	.	2r	.	8.b-L	び	2r	.	A major	8.b-L	び	.
.	.	.	.	.	.	.	.	[16bnJk	.	.	.	.	[16bnJk	.	.
4Ree/	4r	.	.	.	.	.	.	8bL]	ーっ	.	.	.	8bL]	ーっ	.
.	.	.	.	.	.	.	.	16a-L	て	.	.	.	16a-L	て	.
.	.	.	.	.	.	.	.	16g-JJ	い	.	.	.	16g-JJ	い	.
4r	4r	.	.	.	.	2r	.	4g-	る	2r	.	.	4g-	る	.
8Ree/	8r	.	.	.	.	.	.	8r	.	.	.	.	8r	.	.
8r	8Ra\	.	.	.	.	.	.	8e-	つ	.	.	.	8e-	つ	.
=73	=73	=73	=73	=73	=73	=73	=73	=73	=73	=73	=73	=73	=73	=73	=73
4r	4Ra\	2BBn	.	2e-	.	2g-	.	8g-L	か	2bn	.	G major	8g-L	か	.
.	.	.	.	.	.	.	.	8e-	れ	.	.	.	8e-	れ	.
4Ree/	4r	.	.	.	.	.	.	8g-	は	.	.	.	8g-	は	.
.	.	.	.	.	.	.	.	8e-J	て	.	.	.	8e-J	て	.
4r	4r	2D-	.	2f	.	2a-	.	8a-L	る	2dd-	.	A major	8a-L	る	.
.	.	.	.	.	.	.	.	8g-	ま	.	.	.	8g-	ま	.
8Ree/	8r	.	.	.	.	.	.	8a-	で	.	.	.	8a-	で	.
8r	8Ra\	.	.	.	.	.	.	8d-J	く	.	.	.	8d-J	く	.
=74	=74	=74	=74	=74	=74	=74	=74	=74	=74	=74	=74	=74	=74	=74	=74
4r	4r	2BB-	.	2d-	.	2a-	.	8.b-L	り	2dd-	.	F# minor-seventh	8.b-L	り	.
.	.	.	.	.	.	.	.	[16bnJk	か	.	.	.	[16bnJk	か	.
4Ree/	4r	.	.	.	.	.	.	8bL]	ー	.	.	.	8bL]	ー	.
.	.	.	.	.	.	.	.	8b-XJ	え	.	.	.	8b-XJ	え	.
4r	2r	2E-	.	2e-	.	2g-	.	4g-	す	2b-	.	B minor	4g-	す	.
4Rff/	.	.	.	.	.	.	.	8e-L	き	.	.	.	8e-L	き	.
.	.	.	.	.	.	.	.	8b-J	っ	.	.	.	8b-J	っ	.
=75	=75	=75	=75	=75	=75	=75	=75	=75	=75	=75	=75	=75	=75	=75	=75
2r	4Ra\	2r	.	4r	.	4r	.	4a-	と	4r	.	G major	4a-	と	.
.	4Ra\	.	.	8e-L	.	8e-L	き	4r	.	8e-L	き	.	8e-L	き	.
.	.	.	.	8b-J	.	8b-J	っ	.	.	8b-J	っ	.	8b-J	っ	.
2r	4Ra\	4r	.	4a-	.	4a-	と	4r	.	4a-	と	.	4a-	と	.
.	4Ra\	4r	.	8e-L	ず	8e-L	ず	8e-L	ず	8e-L	.	.	8e-L	.	.
.	.	.	.	8b-J	っ	8b-J	っ	8dd-J	っ	8dd-J	.	.	8dd-J	.	.
=76	=76	=76	=76	=76	=76	=76	=76	=76	=76	=76	=76	=76	=76	=76	=76
2r	8Ra\L	2r	.	2a-	と	2a-	と	2bn	と	2bn	.	G# major	2bn	.	G# major
.	8Ra\	.	.	.	.	.	.	.	.	.	.	.	.	.	.
.	8Ra\	.	.	.	.	.	.	.	.	.	.	.	.	.	.
.	8Ra\J	.	.	.	.	.	.	.	.	.	.	.	.	.	.
2r	2r	2G-	.	2b-	ah	2b-	ah	2b-X	ah	2dd-	ah	.	2dd-	ah	.
=77	=77	=77	=77	=77	=77	=77	=77	=77	=77	=77	=77	=77	=77	=77	=77
8.Rff/	8r	8.G-L	.	8g-L	ah	1b-	.	1dd-	.	8b-L	ah	D major	8b-L	ah	D major
.	16r	.	.	8g-	ど	.	.	.	.	8b-	ど	.	8b-	ど	.
16r	[16Ra\	[16G-Jk	.	.	.	.	.	.	.	.	.	.	.	.	.
16r	16Ra\LL]	8G-L]	.	8g-	れ	.	.	.	.	8b-	れ	.	8b-	れ	.
16r	16Ra\JJ	.	.	.	.	.	.	.	.	.	.	.	.	.	.
8Rff/	8r	8G-J	.	8g-J	だ	.	.	.	.	8b-J	だ	.	8b-J	だ	.
8r	8Ra\	8.G-L	.	8g-L	け	.	.	.	.	8b-L	け	.	8b-L	け	.
16Rff/	16r	.	.	8e-	か	.	.	.	.	8g-	か	.	8g-	か	.
16r	[16Ra\	[16G-Jk	.	.	.	.	.	.	.	.	.	.	.	.	.
16r	16Ra\LL]	8G-L]	.	8g-	こ	.	.	.	.	8b-	こ	.	8b-	こ	.
16r	16Ra\JJ	.	.	.	.	.	.	.	.	.	.	.	.	.	.
8Rff/	8r	8G-J	.	8a-J	が	.	.	.	.	8bnJ	が	.	8bnJ	が	.
=78	=78	=78	=78	=78	=78	=78	=78	=78	=78	=78	=78	=78	=78	=78	=78
8r	8Ra\	8.FL	.	4b-	つら	4r	.	4r	.	4dd-	つら	A major/C#	4dd-	つら	A major/C#
16Rff/	16r	.	.	.	.	.	.	.	.	.	.	.	.	.	.
16r	[16Ra\	[16FJk	.	.	.	.	.	.	.	.	.	.	.	.	.
16r	16Ra\LL]	8FL]	.	4g-	くて	4b-	oo	4dd-	oo	4b-	くて	.	4b-	くて	.
16r	16Ra\JJ	.	.	.	.	.	.	.	.	.	.	.	.	.	.
8Rff/	8r	8FJ	.	.	.	.	.	.	.	.	.	.	.	.	.
8r	8Ra\	8.FL	.	4b-	くら	4dd-	.	4gg-	.	4dd-	くら	.	4dd-	くら	.
16Rff/	16r	.	.	.	.	.	.	.	.	.	.	.	.	.	.
16r	[16Ra\	[16FJk	.	.	.	.	.	.	.	.	.	.	.	.	.
16r	16Ra\LL]	8FL]	.	4g-	くて	4b-	.	4ff	.	4b-	くて	.	4b-	くて	.
16r	16Ra\JJ	.	.	.	.	.	.	.	.	.	.	.	.	.	.
8Rff/	8r	8FJ	.	.	.	.	.	.	.	.	.	.	.	.	.
*v	*v	*	*	*	*	*	*	*	*	*	*	*	*	*	*
=79	=79	=79	=79	=79	=79	=79	=79	=79	=79	=79	=79	=79	=79	=79
1ryy	8.E-L	.	16g-LL	も	1b-	.	1ee-	.	16b-LL	も	B minor	16b-LL	も	B minor
.	.	.	16e-	き	.	.	.	.	16g-	き	.	16g-	き	.
.	.	.	16g-	の	.	.	.	.	16b-	の	.	16b-	の	.
.	[16E-Jk	.	16e-JJ	う	.	.	.	.	16g-JJ	う	.	16g-JJ	う	.
.	8E-L]	.	16g-LL	よ	.	.	.	.	16b-LL	よ	.	16b-LL	よ	.
.	.	.	16e-	り	.	.	.	.	16g-	り	.	16g-	り	.
.	8E-J	.	16g-	も	.	.	.	.	16b-	も	.	16b-	も	.
.	.	.	16e-JJ	ふ	.	.	.	.	16g-JJ	ふ	.	16g-JJ	ふ	.
.	8.E-L	.	16g-LL	あ	.	.	.	.	16b-LL	あ	.	16b-LL	あ	.
.	.	.	16e-	ん	.	.	.	.	16g-	ん	.	16g-	ん	.
.	.	.	16g-	な	.	.	.	.	16b-	な	.	16b-	な	.
.	[16E-Jk	.	16e-JJ	あ	.	.	.	.	16g-JJ	あ	.	16g-JJ	あ	.
.	8E-L]	.	16g-LL	し	.	.	.	.	16b-LL	し	.	16b-LL	し	.
.	.	.	16g-J	た	.	.	.	.	16b-J	た	.	16b-J	た	.
.	8E-J	.	8a-J	が	.	.	.	.	8bnJ	が	.	8bnJ	が	.
=80	=80	=80	=80	=80	=80	=80	=80	=80	=80	=80	=80	=80	=80	=80
1ryy	8.D-L	.	8.b-L	ふ	2b-	.	2dd-	.	8.dd-L	ふ	A major	8.dd-L	ふ	A major
.	[16D-Jk	.	[16bnJk	え	.	.	.	.	[16ee-Jk	え	.	[16ee-Jk	え	.
.	8D-L]	.	8bL]	ー	.	.	.	.	8ee-L]	ー	.	8ee-L]	ー	.
.	8D-J	.	16a-L	て	.	.	.	.	16bnL	て	.	16bnL	て	.
.	.	.	16g-JJ	ー	.	.	.	.	16b-XJJ	ー	.	16b-XJJ	ー	.
.	8.D-L	.	16a-KL	も	4f	.	4a-	.	16bnKL	も	.	16bnKL	も	.
.	.	.	8.g-J	.	.	.	.	.	8.b-XJ	.	.	8.b-XJ	.	.
.	[16D-Jk	.	.	.	.	.	.	.	.	.	.	.	.	.
.	8D-L]	.	8r	.	4g-	.	4b-	.	8r	.	.	8r	.	.
.	8D-J	.	8d-	な	.	.	.	.	8f	な	.	8f	な	.
=81	=81	=81	=81	=81	=81	=81	=81	=81	=81	=81	=81	=81	=81	=81
*^	*	*	*	*	*	*	*	*	*	*	*	*	*	*
8.Rff/	8r	8.BBnL	.	8g-L	や	2g-	.	2bn	.	8bnL	や	G major	8bnL	や	G major
.	16r	.	.	8e-	ん	.	.	.	.	8g-	ん	.	8g-	ん	.
16r	[16Ra\	[16BBJk	.	.	.	.	.	.	.	.	.	.	.	.	.
16r	16Ra\LL]	8BBL]	.	8g-	だ	.	.	.	.	8b	だ	.	8b	だ	.
16r	16Ra\JJ	.	.	.	.	.	.	.	.	.	.	.	.	.	.
8Rff/	8r	8BBJ	.	8e-J	り	.	.	.	.	8g-J	り	.	8g-J	り	.
8r	8Ra\	8.D-L	.	8a-L	な	2a-	.	2dd-	.	8dd-L	な	A major	8dd-L	な	A major
16Rff/	16r	.	.	8g-	い	.	.	.	.	8a-	い	.	8a-	い	.
16r	[16Ra\	[16D-Jk	.	.	.	.	.	.	.	.	.	.	.	.	.
16r	16Ra\LL]	8D-L]	.	8a-	た	.	.	.	.	8dd-	た	.	8dd-	た	.
16r	16Ra\JJ	.	.	.	.	.	.	.	.	.	.	.	.	.	.
8Rff/	8r	8D-J	.	8g-J	り	.	.	.	.	8a-J	り	.	8a-J	り	.
=82	=82	=82	=82	=82	=82	=82	=82	=82	=82	=82	=82	=82	=82	=82	=82
8r	8Ra\	4G-	.	8b-L	す	8g-L	す	8dd-L	す	8dd-L	す	D major	8dd-L	す	D major
16Rff/	16r	.	.	8b-J	る	8g-J	る	8dd-J	る	8dd-J	る	.	8dd-J	る	.
16r	[16Ra\	.	.	.	.	.	.	.	.	.	.	.	.	.	.
16r	16Ra\LL]	4F	.	4bn	きょう	4a-	きょう	4ee-	きょう	4ee-	きょう	A major/C#	4ee-	きょう	A major/C#
16r	16Ra\JJ	.	.	.	.	.	.	.	.	.	.	.	.	.	.
8Rff/	8r	.	.	.	.	.	.	.	.	.	.	.	.	.	.
8r	8Ra\	4E-	.	4b-X	も	4g-	も	4dd-	も	4dd-	も	B minor	4dd-	も	B minor
16Rff/	16r	.	.	.	.	.	.	.	.	.	.	.	.	.	.
16r	[16Ra\	.	.	.	.	.	.	.	.	.	.	.	.	.	.
16r	16Ra\LL]	4D-	.	8e-L	す	4r	.	4r	.	4r	.	A major	8e-L	す	.
16r	16Ra\JJ	.	.	.	.	.	.	.	.	.	.	.	.	.	.
8Rff/	8r	.	.	8b-J	す	.	.	.	.	.	.	.	8b-J	す	.
=83	=83	=83	=83	=83	=83	=83	=83	=83	=83	=83	=83	=83	=83	=83	=83
8.Rff/	8r	8.BBnL	.	4a-	め	1g-	.	1bn	.	1ee-	.	G major	4a-	め	.
.	16r	.	.	.	.	.	.	.	.	.	.	.	.	.	.
16r	[16Ra\	[16BBJk	.	.	.	.	.	.	.	.	.	.	.	.	.
16r	16Ra\LL]	8BBL]	.	8r	.	.	.	.	.	.	.	.	8r	.	.
16r	16Ra\JJ	.	.	.	.	.	.	.	.	.	.	.	.	.	.
8Rff/	8r	8BBJ	.	8e-	き	.	.	.	.	.	.	.	8e-	き	.
8r	8Ra\	8.BBL	.	8e-L	み	.	.	.	.	.	.	.	8e-L	み	.
16Rff/	16r	.	.	8e-	ら	.	.	.	.	.	.	.	8e-	ら	.
16r	[16Ra\	[16BBJk	.	.	.	.	.	.	.	.	.	.	.	.	.
16r	16Ra\LL]	8BBL]	.	8e-	し	.	.	.	.	.	.	.	8e-	し	.
16r	16Ra\JJ	.	.	.	.	.	.	.	.	.	.	.	.	.	.
8Rff/	8r	8BBJ	.	8b-J	く	.	.	.	.	.	.	.	8b-J	く	.
=84	=84	=84	=84	=84	=84	=84	=84	=84	=84	=84	=84	=84	=84	=84	=84
8Rff/	8r	1D-	.	8b-L	こ	8fL	こ	8g-L	こ	8dd-L	こ	A major	8b-L	こ	.
16r	16Ra\	.	.	8b-	こ	8f	こ	8g-	こ	8dd-	こ	.	8b-	こ	.
16Rff/	16r	.	.	.	.	.	.	.	.	.	.	.	.	.	.
16r	16r	.	.	8b-	ろ	8f	ろ	8g-	ろ	8dd-	ろ	.	8b-	ろ	.
16r	16Ra\	.	.	.	.	.	.	.	.	.	.	.	.	.	.
16Rff/	8r	.	.	8b-J	お	8fJ	お	8g-J	お	8dd-J	お	.	8b-J	お	.
16r	.	.	.	.	.	.	.	.	.	.	.	.	.	.	.
4r	16Ra\LL	.	.	8b-L	ど	8fL	ど	8a-L	ど	8dd-L	ど	.	8b-L	ど	.
.	16Ra\	.	.	.	.	.	.	.	.	.	.	.	.	.	.
.	16Ra\	.	.	8b-	る	8f	る	8a-	る	8dd-	る	.	8b-	る	.
.	16Ra\JJ	.	.	.	.	.	.	.	.	.	.	.	.	.	.
8Rff/	8r	.	.	8b-	そ	8f	そ	8a-	そ	8dd-	そ	.	8b-	そ	.
8r	16Ra\LL	.	.	8b-J	の	8fJ	の	8a-J	の	8dd-J	の	.	8b-J	の	.
.	16Ra\JJ	.	.	.	.	.	.	.	.	.	.	.	.	.	.
=85	=85	=85	=85	=85	=85	=85	=85	=85	=85	=85	=85	=85	=85	=85	=85
8Rff/	4r	8D-	.	8b-L	さ	8fL	さ	8b-L	さ	8dd-L	さ	.	8b-L	さ	.
8r	.	8r	.	8b-	き	8f	き	8b-	き	8dd-	き	.	8b-	き	.
4.Rff/	4r	[4D-	.	8b-	に	8f	に	8b-	に	8dd-	に	.	8b-	に	.
.	.	.	.	8b-J	は	8fJ	は	8b-J	は	8dd-J	は	.	8b-J	は	.
.	8r	8D-]	.	2r	.	2r	.	8bnL	さ	2r	.	.	2r	.	.
8r	8Ra\	8r	.	.	.	.	.	8b-X	ち	.	.	.	.	.	.
4Rff/	4r	4D-	.	.	.	.	.	8a-	を	.	.	.	.	.	.
.	.	.	.	.	.	.	.	8g-J	ー	.	.	.	.	.	.
=86	=86	=86	=86	=86	=86	=86	=86	=86	=86	=86	=86	=86	=86	=86	=86
8r	8Ra\	8.BBnL	.	16b-LL	い	2e-	.	2g-	.	2bn	.	G major	16b-LL	い	.
.	.	.	.	16b-	き	.	.	.	.	.	.	.	16b-	き	.
16Rff/	16r	.	.	16b-	て	.	.	.	.	.	.	.	16b-	て	.
16r	[16Ra\	[16BBJk	.	16b-JJ	た	.	.	.	.	.	.	.	16b-JJ	た	.
16r	16Ra\LL]	8BBL]	.	16b-LL	え	.	.	.	.	.	.	.	16b-LL	え	.
16r	16Ra\JJ	.	.	16b-	て	.	.	.	.	.	.	.	16b-	て	.
8Rff/	8r	8BBJ	.	16b-	と	.	.	.	.	.	.	.	16b-	と	.
.	.	.	.	16b-JJ	き	.	.	.	.	.	.	.	16b-JJ	き	.
8r	8Ra\	8.D-L	.	16b-LL	に	2f	.	2a-	.	2dd-	.	A major	16b-LL	に	.
.	.	.	.	16b-	こ	.	.	.	.	.	.	.	16b-	こ	.
16Rff/	16r	.	.	16b-	わ	.	.	.	.	.	.	.	16b-	わ	.
16r	[16Ra\	[16D-Jk	.	16b-JJ	れ	.	.	.	.	.	.	.	16b-JJ	れ	.
16r	16Ra\LL]	8D-L]	.	16b-LL	な	.	.	.	.	.	.	.	16b-LL	な	.
16r	16Ra\JJ	.	.	16b-	い	.	.	.	.	.	.	.	16b-	い	.
8Rff/	8r	8D-J	.	16b-	て	.	.	.	.	.	.	.	16b-	て	.
.	.	.	.	16b-JJ	ま	.	.	.	.	.	.	.	16b-JJ	ま	.
*v	*v	*	*	*	*	*	*	*	*	*	*	*	*	*	*
=87	=87	=87	=87	=87	=87	=87	=87	=87	=87	=87	=87	=87	=87	=87
1ryy	8.G-L	.	16b-LL	よ	2f	.	2b-	.	2dd-	.	F# minor-seventh	16b-LL	よ	.
.	.	.	16b-	う	.	.	.	.	.	.	.	16b-	う	.
.	.	.	16b-	か	.	.	.	.	.	.	.	16b-	か	.
.	[16G-Jk	.	16b-JJ	げ	.	.	.	.	.	.	.	16b-JJ	げ	.
.	8G-L]	.	16b-LL	に	.	.	.	.	.	.	.	16b-LL	に	.
.	.	.	16b-	え	.	.	.	.	.	.	.	16b-	え	.
.	8G-J	.	16b-	が	.	.	.	.	.	.	.	16b-	が	.
.	.	.	16b-JJ	お	.	.	.	.	.	.	.	16b-JJ	お	.
.	8.E-L	.	16b-LL	さ	2e-	.	2g-	.	2b-	.	B minor	16b-LL	さ	.
.	.	.	16b-	き	.	.	.	.	.	.	.	16b-	き	.
.	.	.	16b-	ほ	.	.	.	.	.	.	.	16b-	ほ	.
.	[16E-Jk	.	16b-JJ	こ	.	.	.	.	.	.	.	16b-JJ	こ	.
.	8E-L]	.	16a-KL	る	.	.	.	.	.	.	.	16a-KL	る	.
.	.	.	8.g-J	ー	.	.	.	.	.	.	.	8.g-J	ー	.
.	8D-J	.	.	.	.	.	.	.	.	.	.	.	.	.
=88	=88	=88	=88	=88	=88	=88	=88	=88	=88	=88	=88	=88	=88	=88
*^	*	*	*	*	*	*	*	*	*	*	*	*	*	*
8r	8Ra\	8.BBnL	.	8.b-L	い	2r	.	2r	.	2r	.	G major	8.b-L	い	.
16Rff/	16r	.	.	.	.	.	.	.	.	.	.	.	.	.	.
16r	[16Ra\	[16BBJk	.	[16bnJk	き	.	.	.	.	.	.	.	[16bnJk	き	.
16r	16Ra\LL]	8BBL]	.	8bL]	ー	.	.	.	.	.	.	.	8bL]	ー	.
16r	16Ra\JJ	.	.	.	.	.	.	.	.	.	.	.	.	.	.
8Rff/	8r	8BBJ	.	8b-XJ	て	.	.	.	.	.	.	.	8b-XJ	て	.
8r	8Ra\	8.D-L	.	8a-L	い	8r	.	8r	.	8r	.	A major	8a-L	い	.
8Rff/L	8r	.	.	8g-	れ	8d-L	hey	8dd-L	hey	8dd-L	hey	.	8g-	れ	.
.	.	[16D-Jk	.	.	.	.	.	.	.	.	.	.	.	.	.
8Rff/J	4r	8D-L]	.	8g-	ば	8d-J	hey	8dd-J	hey	8dd-	hey	.	8g-	ば	.
8r	.	8D-J	.	8B-J	い	8r	.	8r	.	8g-J	い	.	8B-J	い	.
=89	=89	=89	=89	=89	=89	=89	=89	=89	=89	=89	=89	=89	=89	=89	=89
8r	8Ra\	8.G-L	.	8.b-L	のち	2r	.	2r	.	8.dd-L	のち	D major	8.b-L	のち	.
16Rff/	16r	.	.	.	.	.	.	.	.	.	.	.	.	.	.
16r	[16Ra\	[16G-Jk	.	[16bnJk	さ	.	.	.	.	[16ee-Jk	さ	.	[16bnJk	さ	.
16r	16Ra\LL]	8G-L]	.	8bL]	ー	.	.	.	.	8ee-L]	ー	.	8bL]	ー	.
16r	16Ra\JJ	.	.	.	.	.	.	.	.	.	.	.	.	.	.
8Rff/	8r	8G-J	.	8b-XJ	え	.	.	.	.	8dd-J	え	.	8b-XJ	え	.
8r	8Ra\	8.E-L	.	8a-L	あ	8r	.	8r	.	8bnL	あ	B minor	8a-L	あ	.
8Rff/L	8r	.	.	8g-J	れ	8b-L	hey	8b-L	hey	8b-X	れ	.	8g-J	れ	.
.	.	[16E-Jk	.	.	.	.	.	.	.	.	.	.	.	.	.
8Rff/J	4r	8E-L]	.	8g-	ば	8b-J	hey	8b-J	hey	8dd-J	ば	.	8g-	ば	.
8r	.	8D-J	.	16r	.	8r	.	8r	.	8r	.	.	16r	.	.
.	.	.	.	16b-	ま	.	.	.	.	.	.	.	16b-	ま	.
=90	=90	=90	=90	=90	=90	=90	=90	=90	=90	=90	=90	=90	=90	=90	=90
8r	8Ra\	8.BBnL	.	16b-LL	え	2e-	.	2g-	.	2bn	.	G major	16b-LL	え	.
.	.	.	.	16b-	に	.	.	.	.	.	.	.	16b-	に	.
16Rff/	16r	.	.	16b-	ま	.	.	.	.	.	.	.	16b-	ま	.
16r	[16Ra\	[16BBJk	.	16b-JJ	え	.	.	.	.	.	.	.	16b-JJ	え	.
16r	16Ra\LL]	8BBL]	.	16b-LL	に	.	.	.	.	.	.	.	16b-LL	に	.
16r	16Ra\JJ	.	.	16b-	ま	.	.	.	.	.	.	.	16b-	ま	.
8Rff/	8r	8BBJ	.	16b-	え	.	.	.	.	.	.	.	16b-	え	.
.	.	.	.	16b-JJ	う	.	.	.	.	.	.	.	16b-JJ	う	.
8r	8Ra\	8.D-L	.	16b-LL	え	2f	.	2a-	.	2dd-	.	A major	16b-LL	え	.
.	.	.	.	16g-	に	.	.	.	.	.	.	.	16g-	に	.
16Rff/	16r	.	.	16g-	う	.	.	.	.	.	.	.	16g-	う	.
16r	[16Ra\	[16D-Jk	.	16b-JJ	え	.	.	.	.	.	.	.	16b-JJ	え	.
16r	16Ra\LL]	8D-L]	.	8g-	に	.	.	.	.	.	.	.	8g-	に	.
16r	16Ra\JJ	.	.	.	.	.	.	.	.	.	.	.	.	.	.
8Rff/	8r	8D-J	.	16r	.	.	.	.	.	.	.	.	16r	.	.
.	.	.	.	16b-	じょ	.	.	.	.	.	.	.	16b-	じょ	.
*v	*v	*	*	*	*	*	*	*	*	*	*	*	*	*	*
=91	=91	=91	=91	=91	=91	=91	=91	=91	=91	=91	=91	=91	=91	=91
1ryy	8.BB-L	.	16b-LL	う	2f	.	2b-	.	2dd-	.	F# minor-seventh	16b-LL	う	.
.	.	.	16b-	だ	.	.	.	.	.	.	.	16b-	だ	.
.	.	.	16b-	ん	.	.	.	.	.	.	.	16b-	ん	.
.	[16BB-Jk	.	16b-JJ	じゃ	.	.	.	.	.	.	.	16b-JJ	じゃ	.
.	8BB-L]	.	16b-LL	ない	.	.	.	.	.	.	.	16b-LL	ない	.
.	.	.	16b-	ま	.	.	.	.	.	.	.	16b-	ま	.
.	8BB-J	.	16b-	だ	.	.	.	.	.	.	.	16b-	だ	.
.	.	.	16b-JJ	あ	.	.	.	.	.	.	.	16b-JJ	あ	.
.	8.E-L	.	16bnLL	き	2e-	.	2g-	.	2b-	.	B minor	16bnLL	き	.
.	.	.	16b	ら	.	.	.	.	.	.	.	16b	ら	.
.	.	.	16b-X	め	.	.	.	.	.	.	.	16b-X	め	.
.	[16E-Jk	.	16b-JJ	て	.	.	.	.	.	.	.	16b-JJ	て	.
.	8E-L]	.	8.b-L	ない	.	.	.	.	.	.	.	8.b-L	ない	.
.	8E-J	.	.	.	.	.	.	.	.	.	.	.	.	.
.	.	.	16g-Jk	す	.	.	.	.	.	.	.	16g-Jk	す	.
=92	=92	=92	=92	=92	=92	=92	=92	=92	=92	=92	=92	=92	=92	=92
1ryy	8.BBnL	.	8g-L	べ	8e-L	べ	8g-L	べ	8b-L	.	G major	8g-L	べ	.
.	.	.	8g-	て	8e-	て	8g-	て	8b-	.	.	8g-	て	.
.	[16BBJk	.	.	.	.	.	.	.	.	.	.	.	.	.
.	8BBL]	.	8e-	お	8e-	お	8e-	お	8g-	.	.	8e-	お	.
.	8BBJ	.	8e-J	い	8e-J	い	8e-J	い	8g-J	.	.	8e-J	い	.
.	8.D-L	.	4bn	こ	4g-	こ	4bn	こ	4ee-	.	A major	4bn	こ	.
.	[16D-Jk	.	.	.	.	.	.	.	.	.	.	.	.	.
.	8D-L]	.	8b-XL	し	8fL	し	8b-XL	し	8dd-L	.	.	8b-XL	し	.
.	8D-J	.	[8g-J	て	[8d-J	て	[8g-J	て	[8b-J	.	.	[8g-J	て	.
=93	=93	=93	=93	=93	=93	=93	=93	=93	=93	=93	=93	=93	=93	=93
*^	*	*	*	*	*	*	*	*	*	*	*	*	*	*
8Rff/	8r	8r	.	4g-]	ー	2d-]	.	1g-]	.	1b-]	.	D major	4g-]	ー	.
8r	16Ra\LL	8G-'	.	.	.	.	.	.	.	.	.	.	.	.	.
.	16Ra\JJ	.	.	.	.	.	.	.	.	.	.	.	.	.	.
8r	16r	4G-	.	8r	.	.	.	.	.	.	.	.	8r	.	.
.	16Ra\	.	.	.	.	.	.	.	.	.	.	.	.	.	.
[8Rff/	8r	.	.	8g-	な	.	.	.	.	.	.	.	8g-	な	.
8Rff/]	8r	8.G-L	.	8g-L	に	2e-	.	.	.	.	.	B minor	8g-L	に	.
8r	8Ra\	.	.	8g-	も	.	.	.	.	.	.	.	8g-	も	.
.	.	[16G-Jk	.	.	.	.	.	.	.	.	.	.	.	.	.
4Rff/	4r	8G-L]	.	8a-	か	.	.	.	.	.	.	.	8a-	か	.
.	.	8D-J	.	8a-J	も	.	.	.	.	.	.	.	8a-J	も	.
=94	=94	=94	=94	=94	=94	=94	=94	=94	=94	=94	=94	=94	=94	=94	=94
8r	8Ra\	8.BBnL	.	4b-	ー	2e-	.	2g-	.	2bn	.	G major	4b-	ー	.
16Rff/	16r	.	.	.	.	.	.	.	.	.	.	.	.	.	.
16r	[16Ra\	[16BBJk	.	.	.	.	.	.	.	.	.	.	.	.	.
16r	16Ra\LL]	8BBL]	.	8r	.	.	.	.	.	.	.	.	8r	.	.
16r	16Ra\JJ	.	.	.	.	.	.	.	.	.	.	.	.	.	.
8Rff/	8r	8BBJ	.	8g-	お	.	.	.	.	.	.	.	8g-	お	.
8r	8Ra\	8.D-L	.	8g-L	き	2f	.	2a-	.	2dd-	.	A major	8g-L	き	.
16Rff/	16r	.	.	8g-	ざ	.	.	.	.	.	.	.	8g-	ざ	.
16r	[16Ra\	[16D-Jk	.	.	.	.	.	.	.	.	.	.	.	.	.
16r	16Ra\LL]	8D-L]	.	8a-	り	.	.	.	.	.	.	.	8a-	り	.
16r	16Ra\JJ	.	.	.	.	.	.	.	.	.	.	.	.	.	.
8Rff/	8r	8D-J	.	8g-J	に	.	.	.	.	.	.	.	8g-J	に	.
*v	*v	*	*	*	*	*	*	*	*	*	*	*	*	*	*
=95	=95	=95	=95	=95	=95	=95	=95	=95	=95	=95	=95	=95	=95	=95
1ryy	8.BB-L	.	8r	.	2f	.	2b-	.	2dd-	.	F# minor-seventh	8r	.	.
.	.	.	8b-L	お	.	.	.	.	.	.	.	8b-L	お	.
.	[16BB-Jk	.	.	.	.	.	.	.	.	.	.	.	.	.
.	8BB-L]	.	8b-	も	.	.	.	.	.	.	.	8b-	も	.
.	8BB-J	.	8b-J	い	.	.	.	.	.	.	.	8b-J	い	.
.	4E-	.	8bnL	え	2e-	.	2g-	.	2b-	.	B minor	8bnL	え	.
.	.	.	8b-X	が	.	.	.	.	.	.	.	8b-X	が	.
.	4D-	.	8a-	い	.	.	.	.	.	.	.	8a-	い	.
.	.	.	8g-J	た	.	.	.	.	.	.	.	8g-J	た	.
=96	=96	=96	=96	=96	=96	=96	=96	=96	=96	=96	=96	=96	=96	=96
1ryy	2BBn	.	4g-	そ	4g-	そ	4g-	そ	4b-	そ	.	4g-	そ	.
.	.	.	4e-	の	4e-	の	4e-	の	4g-	の	.	4e-	の	.
.	4Bn	さ	4bn	さ	4bn	さ	4bn	さ	4ee-	さ	.	4bn	さ	.
.	8B-XL	き	8b-XL	き	8b-XL	き	8b-XL	き	8dd-L	き	.	8b-XL	き	.
.	[8G-J	へ	[8g-J	へ	[8g-J	へ	[8g-J	へ	[8b-J	へ	.	[8g-J	へ	.
=97	=97	=97	=97	=97	=97	=97	=97	=97	=97	=97	=97	=97	=97	=97
4r	1G-]	.	1g-]	.	1g-]	.	1g-]	.	1b-]	.	.	1g-]	.	.
4Rff/	.	.	.	.	.	.	.	.	.	.	.	.	.	.
8.Rff/L	.	.	.	.	.	.	.	.	.	.	.	.	.	.
[16Rff/Jk	.	.	.	.	.	.	.	.	.	.	.	.	.	.
8Rff/L]	.	.	.	.	.	.	.	.	.	.	.	.	.	.
8Rff/J	.	.	.	.	.	.	.	.	.	.	.	.	.	.
=98	=98	=98	=98	=98	=98	=98	=98	=98	=98	=98	=98	=98	=98	=98
*^	*	*	*	*	*	*	*	*	*	*	*	*	*	*
4r	4r	4r	.	4r	.	4r	.	4r	.	4r	.	.	4r	.	.
2.Rff/	4r	2.G-	yeah!!!	2.g-	yeah!!!	2.b-	yeah!!!	2.dd-	yeah!!!	2.gg-	yeah!!!	.	2.g-	yeah!!!	.
.	2r	.	.	.	.	.	.	.	.	.	.	.	.	.	.
*v	*v	*	*	*	*	*	*	*	*	*	*	*	*	*	*
==	==	==	==	==	==	==	==	==	==	==	==	==	==	==
*-	*-	*-	*-	*-	*-	*-	*-	*-	*-	*-	*-	*-	*-	*-
